;FLAVOR:RepRap
;TIME:2084
;Filament used: 2.25054m
;Layer height: 0.15
;MINX:-9.563
;MINY:-97.8
;MINZ:0.3
;MAXX:9.563
;MAXY:97.8
;MAXZ:7.5
;Generated with Cura_SteamEngine 4.4.1
T0
M190 S60
M104 S200
M109 S200
M82 ;absolute extrusion mode
G28 ;Home
G1 Z15.0 F6000 ;Move the platform down 15mm
;Prime the extruder
G92 E0
G1 F200 E3
G92 E0
M83 ;relative extrusion mode
G1 F1500 E-6.5
;LAYER_COUNT:49
;LAYER:0
M107
G0 F3600 X9.562 Y-33.983 Z0.3
;TYPE:SKIRT
G1 F1500 E6.5
G1 F1800 X9.563 Y90 E6.18554
G1 X9.523 Y90.789 E0.03941
G1 X9.403 Y91.569 E0.03937
G1 X9.206 Y92.334 E0.03941
G1 X8.932 Y93.074 E0.03937
G1 X8.584 Y93.784 E0.03945
G1 X8.166 Y94.454 E0.0394
G1 X7.683 Y95.078 E0.03937
G1 X7.139 Y95.651 E0.03942
G1 X6.54 Y96.166 E0.03941
G1 X5.893 Y96.617 E0.03935
G1 X5.202 Y97.001 E0.03944
G1 X4.477 Y97.313 E0.03938
G1 X3.724 Y97.55 E0.03938
G1 X2.95 Y97.709 E0.03942
G1 X2.165 Y97.79 E0.03937
G1 X1.763 Y97.8 E0.02006
G1 X-1.762 Y97.8 E0.17586
G1 X-2.551 Y97.76 E0.03941
G1 X-3.331 Y97.641 E0.03936
G1 X-4.096 Y97.443 E0.03942
G1 X-4.836 Y97.169 E0.03937
G1 X-5.545 Y96.821 E0.0394
G1 X-6.216 Y96.403 E0.03944
G1 X-6.84 Y95.92 E0.03937
G1 X-7.413 Y95.377 E0.03938
G1 X-7.928 Y94.778 E0.03941
G1 X-8.379 Y94.13 E0.03939
G1 X-8.763 Y93.439 E0.03944
G1 X-9.075 Y92.714 E0.03938
G1 X-9.312 Y91.961 E0.03938
G1 X-9.471 Y91.187 E0.03942
G1 X-9.552 Y90.402 E0.03937
G1 X-9.562 Y90 E0.02006
G1 X-9.562 Y33.983 E2.7947
G1 X-9.563 Y-90 E6.18554
G1 X-9.523 Y-90.789 E0.03941
G1 X-9.404 Y-91.569 E0.03936
G1 X-9.206 Y-92.334 E0.03942
G1 X-8.932 Y-93.074 E0.03937
G1 X-8.584 Y-93.783 E0.0394
G1 X-8.166 Y-94.454 E0.03944
G1 X-7.683 Y-95.078 E0.03937
G1 X-7.14 Y-95.651 E0.03938
G1 X-6.541 Y-96.166 E0.03941
G1 X-5.893 Y-96.617 E0.03939
G1 X-5.202 Y-97.001 E0.03944
G1 X-4.477 Y-97.313 E0.03938
G1 X-3.724 Y-97.55 E0.03938
G1 X-2.95 Y-97.709 E0.03942
G1 X-2.165 Y-97.79 E0.03937
G1 X-1.763 Y-97.8 E0.02006
G1 X1.763 Y-97.8 E0.17591
G1 X2.552 Y-97.76 E0.03941
G1 X3.332 Y-97.641 E0.03936
G1 X4.097 Y-97.443 E0.03942
G1 X4.837 Y-97.169 E0.03937
G1 X5.546 Y-96.821 E0.0394
G1 X6.217 Y-96.403 E0.03944
G1 X6.841 Y-95.92 E0.03937
G1 X7.414 Y-95.377 E0.03938
G1 X7.929 Y-94.778 E0.03941
G1 X8.38 Y-94.13 E0.03939
G1 X8.764 Y-93.439 E0.03944
G1 X9.076 Y-92.714 E0.03938
G1 X9.313 Y-91.961 E0.03938
G1 X9.472 Y-91.187 E0.03942
G1 X9.553 Y-90.402 E0.03937
G1 X9.563 Y-90 E0.02006
G1 X9.562 Y-33.983 E2.7947
G0 F3600 X9.162 Y-33.983
G1 F1800 X9.163 Y90 E6.18554
G1 X9.123 Y90.768 E0.03837
G1 X9.004 Y91.528 E0.03838
G1 X8.806 Y92.271 E0.03836
G1 X8.532 Y92.99 E0.03839
G1 X8.185 Y93.677 E0.0384
G1 X7.769 Y94.323 E0.03833
G1 X7.288 Y94.923 E0.03837
G1 X6.747 Y95.47 E0.03838
G1 X6.152 Y95.958 E0.03839
G1 X5.51 Y96.381 E0.03836
G1 X4.827 Y96.736 E0.0384
G1 X4.111 Y97.017 E0.03837
G1 X3.37 Y97.223 E0.03837
G1 X2.612 Y97.351 E0.03835
G1 X1.763 Y97.4 E0.04243
G1 X-1.762 Y97.4 E0.17586
G1 X-2.53 Y97.36 E0.03837
G1 X-3.29 Y97.241 E0.03838
G1 X-4.033 Y97.043 E0.03836
G1 X-4.752 Y96.769 E0.03839
G1 X-5.438 Y96.422 E0.03835
G1 X-6.085 Y96.006 E0.03838
G1 X-6.685 Y95.525 E0.03837
G1 X-7.232 Y94.984 E0.03838
G1 X-7.72 Y94.389 E0.03839
G1 X-8.143 Y93.747 E0.03836
G1 X-8.498 Y93.064 E0.0384
G1 X-8.779 Y92.349 E0.03833
G1 X-8.985 Y91.607 E0.03842
G1 X-9.113 Y90.849 E0.03835
G1 X-9.162 Y90 E0.04243
G1 X-9.162 Y33.983 E2.7947
G1 X-9.163 Y-90 E6.18554
G1 X-9.123 Y-90.768 E0.03837
G1 X-9.004 Y-91.528 E0.03838
G1 X-8.806 Y-92.271 E0.03836
G1 X-8.532 Y-92.99 E0.03839
G1 X-8.185 Y-93.676 E0.03835
G1 X-7.769 Y-94.323 E0.03838
G1 X-7.288 Y-94.923 E0.03837
G1 X-6.747 Y-95.47 E0.03838
G1 X-6.152 Y-95.958 E0.03839
G1 X-5.51 Y-96.381 E0.03836
G1 X-4.827 Y-96.736 E0.0384
G1 X-4.112 Y-97.017 E0.03833
G1 X-3.37 Y-97.223 E0.03842
G1 X-2.612 Y-97.351 E0.03835
G1 X-1.763 Y-97.4 E0.04243
G1 X1.763 Y-97.4 E0.17591
G1 X2.531 Y-97.36 E0.03837
G1 X3.291 Y-97.241 E0.03838
G1 X4.034 Y-97.043 E0.03836
G1 X4.753 Y-96.769 E0.03839
G1 X5.439 Y-96.422 E0.03835
G1 X6.086 Y-96.006 E0.03838
G1 X6.686 Y-95.525 E0.03837
G1 X7.233 Y-94.984 E0.03838
G1 X7.721 Y-94.389 E0.03839
G1 X8.144 Y-93.747 E0.03836
G1 X8.499 Y-93.064 E0.0384
G1 X8.78 Y-92.349 E0.03833
G1 X8.986 Y-91.607 E0.03842
G1 X9.114 Y-90.849 E0.03835
G1 X9.163 Y-90 E0.04243
G1 X9.162 Y-33.983 E2.7947
G0 F3600 X8.762 Y-33.983
G1 F1800 X8.763 Y90 E6.18554
G1 X8.723 Y90.747 E0.03732
G1 X8.604 Y91.486 E0.03734
G1 X8.406 Y92.207 E0.0373
G1 X8.132 Y92.903 E0.03732
G1 X7.786 Y93.567 E0.03735
G1 X7.371 Y94.189 E0.0373
G1 X6.892 Y94.763 E0.0373
G1 X6.355 Y95.284 E0.03733
G1 X5.765 Y95.743 E0.03729
G1 X5.129 Y96.138 E0.03735
G1 X4.455 Y96.462 E0.03731
G1 X3.75 Y96.712 E0.03732
G1 X3.022 Y96.886 E0.03734
G1 X2.28 Y96.981 E0.03732
G1 X1.763 Y97 E0.02581
G1 X-1.762 Y97 E0.17586
G1 X-2.509 Y96.96 E0.03732
G1 X-3.247 Y96.841 E0.03729
G1 X-3.969 Y96.643 E0.03735
G1 X-4.665 Y96.37 E0.0373
G1 X-5.328 Y96.023 E0.03733
G1 X-5.951 Y95.608 E0.03735
G1 X-6.525 Y95.129 E0.0373
G1 X-7.046 Y94.592 E0.03733
G1 X-7.505 Y94.002 E0.03729
G1 X-7.9 Y93.366 E0.03735
G1 X-8.224 Y92.692 E0.03731
G1 X-8.474 Y91.987 E0.03732
G1 X-8.648 Y91.259 E0.03734
G1 X-8.743 Y90.517 E0.03732
G1 X-8.762 Y90 E0.02581
G1 X-8.762 Y33.983 E2.7947
G1 X-8.763 Y-90 E6.18554
G1 X-8.723 Y-90.747 E0.03732
G1 X-8.604 Y-91.485 E0.03729
G1 X-8.406 Y-92.207 E0.03735
G1 X-8.133 Y-92.903 E0.0373
G1 X-7.786 Y-93.566 E0.03733
G1 X-7.371 Y-94.189 E0.03735
G1 X-6.892 Y-94.763 E0.0373
G1 X-6.355 Y-95.284 E0.03733
G1 X-5.765 Y-95.743 E0.03729
G1 X-5.129 Y-96.138 E0.03735
G1 X-4.455 Y-96.462 E0.03731
G1 X-3.75 Y-96.712 E0.03732
G1 X-3.022 Y-96.886 E0.03734
G1 X-2.28 Y-96.981 E0.03732
G1 X-1.763 Y-97 E0.02581
G1 X1.763 Y-97 E0.17591
G1 X2.51 Y-96.96 E0.03732
G1 X3.248 Y-96.841 E0.03729
G1 X3.97 Y-96.643 E0.03735
G1 X4.666 Y-96.37 E0.0373
G1 X5.329 Y-96.023 E0.03733
G1 X5.952 Y-95.608 E0.03735
G1 X6.526 Y-95.129 E0.0373
G1 X7.047 Y-94.592 E0.03733
G1 X7.506 Y-94.002 E0.03729
G1 X7.901 Y-93.366 E0.03735
G1 X8.225 Y-92.692 E0.03731
G1 X8.475 Y-91.987 E0.03732
G1 X8.649 Y-91.259 E0.03734
G1 X8.744 Y-90.517 E0.03732
G1 X8.763 Y-90 E0.02581
G1 X8.762 Y-33.983 E2.7947
G0 F3600 X8.362 Y-33.983
G1 F1800 X8.363 Y90 E6.18554
G1 X8.323 Y90.725 E0.03623
G1 X8.204 Y91.442 E0.03626
G1 X8.006 Y92.141 E0.03625
G1 X7.733 Y92.814 E0.03623
G1 X7.388 Y93.453 E0.03623
G1 X6.974 Y94.05 E0.03625
G1 X6.498 Y94.598 E0.03621
G1 X5.964 Y95.091 E0.03626
G1 X5.379 Y95.521 E0.03622
G1 X4.75 Y95.885 E0.03626
G1 X4.085 Y96.178 E0.03625
G1 X3.392 Y96.396 E0.03624
G1 X2.68 Y96.536 E0.0362
G1 X1.763 Y96.6 E0.04586
G1 X-1.762 Y96.6 E0.17586
G1 X-2.487 Y96.56 E0.03623
G1 X-3.204 Y96.441 E0.03626
G1 X-3.903 Y96.243 E0.03625
G1 X-4.576 Y95.97 E0.03623
G1 X-5.215 Y95.625 E0.03623
G1 X-5.812 Y95.211 E0.03625
G1 X-6.36 Y94.735 E0.03621
G1 X-6.853 Y94.201 E0.03626
G1 X-7.283 Y93.616 E0.03622
G1 X-7.647 Y92.987 E0.03626
G1 X-7.94 Y92.322 E0.03625
G1 X-8.158 Y91.629 E0.03624
G1 X-8.298 Y90.917 E0.0362
G1 X-8.362 Y90 E0.04586
G1 X-8.362 Y33.983 E2.7947
G1 X-8.363 Y-90 E6.18554
G1 X-8.323 Y-90.725 E0.03623
G1 X-8.204 Y-91.442 E0.03626
G1 X-8.006 Y-92.141 E0.03625
G1 X-7.733 Y-92.814 E0.03623
G1 X-7.388 Y-93.453 E0.03623
G1 X-6.974 Y-94.05 E0.03625
G1 X-6.498 Y-94.598 E0.03621
G1 X-5.964 Y-95.091 E0.03626
G1 X-5.379 Y-95.521 E0.03622
G1 X-4.75 Y-95.885 E0.03626
G1 X-4.085 Y-96.178 E0.03625
G1 X-3.392 Y-96.396 E0.03624
G1 X-2.68 Y-96.536 E0.0362
G1 X-1.763 Y-96.6 E0.04586
G1 X1.763 Y-96.6 E0.17591
G1 X2.488 Y-96.56 E0.03623
G1 X3.205 Y-96.441 E0.03626
G1 X3.904 Y-96.243 E0.03625
G1 X4.577 Y-95.97 E0.03623
G1 X5.216 Y-95.625 E0.03623
G1 X5.813 Y-95.211 E0.03625
G1 X6.361 Y-94.735 E0.03621
G1 X6.854 Y-94.201 E0.03626
G1 X7.284 Y-93.616 E0.03622
G1 X7.648 Y-92.987 E0.03626
G1 X7.941 Y-92.322 E0.03625
G1 X8.159 Y-91.629 E0.03624
G1 X8.299 Y-90.917 E0.0362
G1 X8.363 Y-90 E0.04586
G1 X8.362 Y-33.983 E2.7947
G0 F3600 X7.962 Y-33.983
G1 F1800 X7.963 Y90 E6.18554
G1 X7.923 Y90.703 E0.03513
G1 X7.804 Y91.397 E0.03513
G1 X7.606 Y92.073 E0.03514
G1 X7.334 Y92.722 E0.03511
G1 X6.989 Y93.336 E0.03514
G1 X6.577 Y93.907 E0.03513
G1 X6.104 Y94.427 E0.03507
G1 X5.574 Y94.891 E0.03514
G1 X4.995 Y95.291 E0.03511
G1 X4.374 Y95.623 E0.03513
G1 X3.72 Y95.883 E0.03511
G1 X3.04 Y96.067 E0.03515
G1 X2.344 Y96.173 E0.03512
G1 X1.763 Y96.2 E0.02902
G1 X-1.762 Y96.2 E0.17586
G1 X-2.465 Y96.16 E0.03513
G1 X-3.159 Y96.041 E0.03513
G1 X-3.834 Y95.843 E0.03509
G1 X-4.483 Y95.571 E0.03511
G1 X-5.097 Y95.226 E0.03514
G1 X-5.668 Y94.815 E0.0351
G1 X-6.189 Y94.341 E0.03514
G1 X-6.653 Y93.811 E0.03514
G1 X-7.053 Y93.232 E0.03511
G1 X-7.385 Y92.611 E0.03513
G1 X-7.645 Y91.957 E0.03511
G1 X-7.829 Y91.277 E0.03515
G1 X-7.935 Y90.581 E0.03512
G1 X-7.962 Y90 E0.02902
G1 X-7.962 Y33.983 E2.7947
G1 X-7.963 Y-90 E6.18554
G1 X-7.923 Y-90.703 E0.03513
G1 X-7.804 Y-91.397 E0.03513
G1 X-7.606 Y-92.072 E0.03509
G1 X-7.334 Y-92.721 E0.03511
G1 X-6.989 Y-93.335 E0.03514
G1 X-6.578 Y-93.906 E0.0351
G1 X-6.104 Y-94.427 E0.03514
G1 X-5.574 Y-94.891 E0.03514
G1 X-4.995 Y-95.291 E0.03511
G1 X-4.374 Y-95.623 E0.03513
G1 X-3.72 Y-95.883 E0.03511
G1 X-3.04 Y-96.067 E0.03515
G1 X-2.344 Y-96.173 E0.03512
G1 X-1.763 Y-96.2 E0.02902
G1 X1.763 Y-96.2 E0.17591
G1 X2.466 Y-96.16 E0.03513
G1 X3.16 Y-96.041 E0.03513
G1 X3.835 Y-95.843 E0.03509
G1 X4.484 Y-95.571 E0.03511
G1 X5.098 Y-95.226 E0.03514
G1 X5.669 Y-94.815 E0.0351
G1 X6.19 Y-94.341 E0.03514
G1 X6.654 Y-93.811 E0.03514
G1 X7.054 Y-93.232 E0.03511
G1 X7.386 Y-92.611 E0.03513
G1 X7.646 Y-91.957 E0.03511
G1 X7.83 Y-91.277 E0.03515
G1 X7.936 Y-90.581 E0.03512
G1 X7.963 Y-90 E0.02902
G1 X7.962 Y-33.983 E2.7947
G0 F3600 X7.562 Y-33.983
G1 F1800 X7.563 Y90 E6.18554
G1 X7.523 Y90.68 E0.03398
G1 X7.404 Y91.35 E0.03395
G1 X7.207 Y92.002 E0.03398
G1 X6.934 Y92.626 E0.03398
G1 X6.591 Y93.214 E0.03396
G1 X6.181 Y93.758 E0.03399
G1 X5.71 Y94.25 E0.03398
G1 X5.185 Y94.683 E0.03395
G1 X4.613 Y95.052 E0.03396
G1 X4.001 Y95.351 E0.03398
G1 X3.359 Y95.576 E0.03394
G1 X2.694 Y95.725 E0.034
G1 X1.763 Y95.8 E0.0466
G1 X-1.762 Y95.8 E0.17586
G1 X-2.442 Y95.76 E0.03398
G1 X-3.112 Y95.641 E0.03395
G1 X-3.764 Y95.444 E0.03398
G1 X-4.388 Y95.172 E0.03396
G1 X-4.976 Y94.828 E0.03399
G1 X-5.52 Y94.418 E0.03399
G1 X-6.011 Y93.947 E0.03394
G1 X-6.445 Y93.422 E0.03398
G1 X-6.814 Y92.85 E0.03396
G1 X-7.113 Y92.238 E0.03398
G1 X-7.338 Y91.596 E0.03394
G1 X-7.487 Y90.931 E0.034
G1 X-7.562 Y90 E0.0466
G1 X-7.562 Y33.983 E2.7947
G1 X-7.563 Y-90 E6.18554
G1 X-7.523 Y-90.68 E0.03398
G1 X-7.404 Y-91.35 E0.03395
G1 X-7.207 Y-92.002 E0.03398
G1 X-6.935 Y-92.626 E0.03396
G1 X-6.591 Y-93.214 E0.03399
G1 X-6.181 Y-93.758 E0.03399
G1 X-5.71 Y-94.249 E0.03394
G1 X-5.185 Y-94.683 E0.03398
G1 X-4.613 Y-95.052 E0.03396
G1 X-4.001 Y-95.351 E0.03398
G1 X-3.359 Y-95.576 E0.03394
G1 X-2.694 Y-95.725 E0.034
G1 X-1.763 Y-95.8 E0.0466
G1 X1.763 Y-95.8 E0.17591
G1 X2.443 Y-95.76 E0.03398
G1 X3.113 Y-95.641 E0.03395
G1 X3.765 Y-95.444 E0.03398
G1 X4.389 Y-95.172 E0.03396
G1 X4.977 Y-94.828 E0.03399
G1 X5.521 Y-94.418 E0.03399
G1 X6.012 Y-93.947 E0.03394
G1 X6.446 Y-93.422 E0.03398
G1 X6.815 Y-92.85 E0.03396
G1 X7.114 Y-92.238 E0.03398
G1 X7.339 Y-91.596 E0.03394
G1 X7.488 Y-90.931 E0.034
G1 X7.563 Y-90 E0.0466
G1 X7.562 Y-33.983 E2.7947
G0 F3600 X7.162 Y-33.983
G1 F1800 X7.163 Y90 E6.18554
G1 X7.123 Y90.656 E0.03279
G1 X7.004 Y91.302 E0.03277
G1 X6.807 Y91.929 E0.03279
G1 X6.535 Y92.527 E0.03278
G1 X6.193 Y93.088 E0.03278
G1 X5.785 Y93.603 E0.03278
G1 X5.318 Y94.065 E0.03277
G1 X4.798 Y94.466 E0.03276
G1 X4.233 Y94.802 E0.0328
G1 X3.632 Y95.066 E0.03275
G1 X3.003 Y95.256 E0.03278
G1 X2.356 Y95.367 E0.03275
G1 X1.763 Y95.4 E0.02963
G1 X-1.762 Y95.4 E0.17586
G1 X-2.418 Y95.36 E0.03279
G1 X-3.064 Y95.241 E0.03277
G1 X-3.691 Y95.044 E0.03279
G1 X-4.289 Y94.772 E0.03278
G1 X-4.85 Y94.43 E0.03278
G1 X-5.365 Y94.022 E0.03278
G1 X-5.827 Y93.555 E0.03277
G1 X-6.228 Y93.035 E0.03276
G1 X-6.564 Y92.471 E0.03275
G1 X-6.828 Y91.869 E0.03279
G1 X-7.018 Y91.24 E0.03278
G1 X-7.129 Y90.593 E0.03275
G1 X-7.162 Y90 E0.02963
G1 X-7.162 Y33.983 E2.7947
G1 X-7.163 Y-90 E6.18554
G1 X-7.123 Y-90.656 E0.03279
G1 X-7.004 Y-91.302 E0.03277
G1 X-6.807 Y-91.929 E0.03279
G1 X-6.535 Y-92.527 E0.03278
G1 X-6.193 Y-93.088 E0.03278
G1 X-5.785 Y-93.603 E0.03278
G1 X-5.318 Y-94.065 E0.03277
G1 X-4.798 Y-94.466 E0.03276
G1 X-4.234 Y-94.802 E0.03275
G1 X-3.632 Y-95.066 E0.03279
G1 X-3.003 Y-95.256 E0.03278
G1 X-2.356 Y-95.367 E0.03275
G1 X-1.763 Y-95.4 E0.02963
G1 X1.763 Y-95.4 E0.17591
G1 X2.419 Y-95.36 E0.03279
G1 X3.065 Y-95.241 E0.03277
G1 X3.692 Y-95.044 E0.03279
G1 X4.29 Y-94.772 E0.03278
G1 X4.851 Y-94.43 E0.03278
G1 X5.366 Y-94.022 E0.03278
G1 X5.828 Y-93.555 E0.03277
G1 X6.229 Y-93.035 E0.03276
G1 X6.565 Y-92.471 E0.03275
G1 X6.829 Y-91.869 E0.03279
G1 X7.019 Y-91.24 E0.03278
G1 X7.13 Y-90.593 E0.03275
G1 X7.163 Y-90 E0.02963
G1 X7.162 Y-33.983 E2.7947
G0 F3600 X6.762 Y-33.983
G1 F1800 X6.763 Y90 E6.18554
G1 X6.723 Y90.631 E0.03154
G1 X6.604 Y91.252 E0.03155
G1 X6.407 Y91.853 E0.03155
G1 X6.136 Y92.424 E0.03153
G1 X5.796 Y92.956 E0.0315
G1 X5.39 Y93.441 E0.03156
G1 X4.927 Y93.871 E0.03152
G1 X4.413 Y94.24 E0.03157
G1 X3.857 Y94.54 E0.03152
G1 X3.268 Y94.768 E0.03151
G1 X2.654 Y94.92 E0.03156
G1 X1.763 Y95 E0.04463
G1 X-1.762 Y95 E0.17586
G1 X-2.393 Y94.96 E0.03154
G1 X-3.014 Y94.841 E0.03155
G1 X-3.614 Y94.644 E0.03151
G1 X-4.186 Y94.373 E0.03158
G1 X-4.718 Y94.033 E0.0315
G1 X-5.203 Y93.627 E0.03156
G1 X-5.633 Y93.164 E0.03152
G1 X-6.002 Y92.65 E0.03157
G1 X-6.302 Y92.094 E0.03152
G1 X-6.53 Y91.505 E0.03151
G1 X-6.682 Y90.891 E0.03156
G1 X-6.762 Y90 E0.04463
G1 X-6.762 Y33.983 E2.7947
G1 X-6.763 Y-90 E6.18554
G1 X-6.723 Y-90.631 E0.03154
G1 X-6.604 Y-91.252 E0.03155
G1 X-6.407 Y-91.852 E0.03151
G1 X-6.136 Y-92.424 E0.03158
G1 X-5.796 Y-92.956 E0.0315
G1 X-5.39 Y-93.441 E0.03156
G1 X-4.927 Y-93.871 E0.03152
G1 X-4.413 Y-94.24 E0.03157
G1 X-3.857 Y-94.54 E0.03152
G1 X-3.268 Y-94.768 E0.03151
G1 X-2.654 Y-94.92 E0.03156
G1 X-1.763 Y-95 E0.04463
G1 X1.763 Y-95 E0.17591
G1 X2.394 Y-94.96 E0.03154
G1 X3.015 Y-94.841 E0.03155
G1 X3.615 Y-94.644 E0.03151
G1 X4.187 Y-94.373 E0.03158
G1 X4.719 Y-94.033 E0.0315
G1 X5.204 Y-93.627 E0.03156
G1 X5.634 Y-93.164 E0.03152
G1 X6.003 Y-92.65 E0.03157
G1 X6.303 Y-92.094 E0.03152
G1 X6.531 Y-91.505 E0.03151
G1 X6.683 Y-90.891 E0.03156
G1 X6.763 Y-90 E0.04463
G1 X6.762 Y-33.983 E2.7947
G0 F3600 X6.362 Y-33.983
G1 F1800 X6.363 Y90 E6.18554
G1 X6.323 Y90.605 E0.03025
G1 X6.204 Y91.2 E0.03027
G1 X6.008 Y91.773 E0.03021
G1 X5.737 Y92.316 E0.03028
G1 X5.398 Y92.819 E0.03026
G1 X4.996 Y93.272 E0.03022
G1 X4.538 Y93.669 E0.03024
G1 X4.031 Y94.002 E0.03026
G1 X3.485 Y94.266 E0.03026
G1 X2.909 Y94.455 E0.03024
G1 X2.313 Y94.567 E0.03026
G1 X1.763 Y94.6 E0.02749
G1 X-1.762 Y94.6 E0.17586
G1 X-2.367 Y94.56 E0.03025
G1 X-2.961 Y94.441 E0.03022
G1 X-3.535 Y94.245 E0.03026
G1 X-4.078 Y93.974 E0.03028
G1 X-4.581 Y93.635 E0.03026
G1 X-5.034 Y93.233 E0.03022
G1 X-5.431 Y92.775 E0.03024
G1 X-5.764 Y92.268 E0.03026
G1 X-6.028 Y91.722 E0.03026
G1 X-6.217 Y91.146 E0.03024
G1 X-6.329 Y90.55 E0.03026
G1 X-6.362 Y90 E0.02749
G1 X-6.362 Y33.983 E2.7947
G1 X-6.363 Y-90 E6.18554
G1 X-6.323 Y-90.605 E0.03025
G1 X-6.204 Y-91.199 E0.03022
G1 X-6.008 Y-91.773 E0.03026
G1 X-5.737 Y-92.316 E0.03028
G1 X-5.398 Y-92.819 E0.03026
G1 X-4.996 Y-93.272 E0.03022
G1 X-4.538 Y-93.669 E0.03024
G1 X-4.031 Y-94.002 E0.03026
G1 X-3.485 Y-94.266 E0.03026
G1 X-2.909 Y-94.455 E0.03024
G1 X-2.313 Y-94.567 E0.03026
G1 X-1.763 Y-94.6 E0.02749
G1 X1.763 Y-94.6 E0.17591
G1 X2.368 Y-94.56 E0.03025
G1 X2.962 Y-94.441 E0.03022
G1 X3.536 Y-94.245 E0.03026
G1 X4.079 Y-93.974 E0.03028
G1 X4.582 Y-93.635 E0.03026
G1 X5.035 Y-93.233 E0.03022
G1 X5.432 Y-92.775 E0.03024
G1 X5.765 Y-92.268 E0.03026
G1 X6.029 Y-91.722 E0.03026
G1 X6.218 Y-91.146 E0.03024
G1 X6.33 Y-90.55 E0.03026
G1 X6.363 Y-90 E0.02749
G1 X6.362 Y-33.983 E2.7947
G0 F3600 X5.962 Y-33.983
G1 F1800 X5.963 Y90 E6.18554
G1 X5.923 Y90.578 E0.02891
G1 X5.804 Y91.145 E0.0289
G1 X5.608 Y91.69 E0.0289
G1 X5.339 Y92.203 E0.0289
G1 X5.002 Y92.674 E0.02889
G1 X4.603 Y93.094 E0.0289
G1 X4.15 Y93.456 E0.02893
G1 X3.652 Y93.751 E0.02888
