;FLAVOR:RepRap
;TIME:616
;Filament used: 0.659198m
;Layer height: 0.15
;MINX:-9.563
;MINY:-32.8
;MINZ:0.3
;MAXX:9.563
;MAXY:32.8
;MAXZ:7.5
;Generated with Cura_SteamEngine 4.4.1
T0
M190 S60
M104 S200
M109 S200
M82 ;absolute extrusion mode
G28 ;Home
G1 Z15.0 F6000 ;Move the platform down 15mm
;Prime the extruder
G92 E0
G1 F200 E3
G92 E0
M83 ;relative extrusion mode
G1 F1500 E-6.5
;LAYER_COUNT:49
;LAYER:0
M107
G0 F3600 X9.562 Y-9.439 Z0.3
;TYPE:SKIRT
G1 F1500 E6.5
G1 F1800 X9.563 Y25.001 E1.71822
G1 X9.523 Y25.789 E0.03936
G1 X9.403 Y26.57 E0.03942
G1 X9.206 Y27.334 E0.03936
G1 X8.931 Y28.075 E0.03943
G1 X8.584 Y28.784 E0.03938
G1 X8.166 Y29.454 E0.0394
G1 X7.683 Y30.079 E0.03941
G1 X7.139 Y30.651 E0.03938
G1 X6.54 Y31.166 E0.03941
G1 X5.892 Y31.617 E0.03939
G1 X5.202 Y32.001 E0.0394
G1 X4.477 Y32.313 E0.03938
G1 X3.723 Y32.55 E0.03943
G1 X2.95 Y32.709 E0.03937
G1 X2.164 Y32.79 E0.03942
G1 X1.763 Y32.8 E0.02001
G1 X-1.762 Y32.8 E0.17586
G1 X-2.551 Y32.76 E0.03941
G1 X-3.331 Y32.641 E0.03936
G1 X-4.096 Y32.443 E0.03942
G1 X-4.836 Y32.169 E0.03937
G1 X-5.545 Y31.821 E0.0394
G1 X-6.216 Y31.403 E0.03944
G1 X-6.84 Y30.92 E0.03937
G1 X-7.413 Y30.377 E0.03938
G1 X-7.928 Y29.778 E0.03941
G1 X-8.379 Y29.13 E0.03939
G1 X-8.763 Y28.439 E0.03944
G1 X-9.075 Y27.714 E0.03938
G1 X-9.312 Y26.961 E0.03938
G1 X-9.471 Y26.187 E0.03942
G1 X-9.552 Y25.402 E0.03937
G1 X-9.562 Y25 E0.02006
G1 X-9.563 Y-25 E2.49451
G1 X-9.523 Y-25.789 E0.03941
G1 X-9.404 Y-26.569 E0.03936
G1 X-9.206 Y-27.334 E0.03942
G1 X-8.932 Y-28.074 E0.03937
G1 X-8.584 Y-28.783 E0.0394
G1 X-8.167 Y-29.454 E0.03941
G1 X-7.683 Y-30.078 E0.0394
G1 X-7.14 Y-30.651 E0.03938
G1 X-6.541 Y-31.166 E0.03941
G1 X-5.893 Y-31.617 E0.03939
G1 X-5.203 Y-32.001 E0.0394
G1 X-4.477 Y-32.313 E0.03942
G1 X-3.724 Y-32.55 E0.03938
G1 X-2.95 Y-32.709 E0.03942
G1 X-2.165 Y-32.79 E0.03937
G1 X-1.763 Y-32.8 E0.02006
G1 X1.763 Y-32.8 E0.17591
G1 X2.552 Y-32.76 E0.03941
G1 X3.332 Y-32.641 E0.03936
G1 X4.097 Y-32.443 E0.03942
G1 X4.837 Y-32.169 E0.03937
G1 X5.546 Y-31.821 E0.0394
G1 X6.217 Y-31.403 E0.03944
G1 X6.841 Y-30.92 E0.03937
G1 X7.414 Y-30.377 E0.03938
G1 X7.929 Y-29.778 E0.03941
G1 X8.38 Y-29.13 E0.03939
G1 X8.764 Y-28.439 E0.03944
G1 X9.076 Y-27.714 E0.03938
G1 X9.313 Y-26.961 E0.03938
G1 X9.472 Y-26.187 E0.03942
G1 X9.553 Y-25.402 E0.03937
G1 X9.563 Y-24.999 E0.02011
G1 X9.562 Y-9.439 E0.77629
G0 F3600 X9.162 Y-9.44
G1 F1800 X9.163 Y25 E1.71822
G1 X9.123 Y25.769 E0.03842
G1 X9.003 Y26.528 E0.03834
G1 X8.806 Y27.272 E0.0384
G1 X8.532 Y27.99 E0.03834
G1 X8.185 Y28.677 E0.0384
G1 X7.769 Y29.324 E0.03838
G1 X7.287 Y29.924 E0.0384
G1 X6.746 Y30.47 E0.03835
G1 X6.152 Y30.958 E0.03835
G1 X5.509 Y31.382 E0.03843
G1 X4.827 Y31.736 E0.03834
G1 X4.111 Y32.018 E0.03839
G1 X3.37 Y32.223 E0.03836
G1 X2.612 Y32.351 E0.03835
G1 X1.763 Y32.4 E0.04243
G1 X-1.762 Y32.4 E0.17586
G1 X-2.53 Y32.36 E0.03837
G1 X-3.29 Y32.241 E0.03838
G1 X-4.033 Y32.043 E0.03836
G1 X-4.752 Y31.769 E0.03839
G1 X-5.438 Y31.422 E0.03835
G1 X-6.085 Y31.006 E0.03838
G1 X-6.685 Y30.525 E0.03837
G1 X-7.232 Y29.984 E0.03838
G1 X-7.72 Y29.389 E0.03839
G1 X-8.143 Y28.747 E0.03836
G1 X-8.498 Y28.064 E0.0384
G1 X-8.779 Y27.349 E0.03833
G1 X-8.985 Y26.607 E0.03842
G1 X-9.113 Y25.849 E0.03835
G1 X-9.162 Y25 E0.04243
G1 X-9.163 Y-25 E2.49451
G1 X-9.123 Y-25.768 E0.03837
G1 X-9.004 Y-26.528 E0.03838
G1 X-8.806 Y-27.271 E0.03836
G1 X-8.532 Y-27.99 E0.03839
G1 X-8.185 Y-28.676 E0.03835
G1 X-7.769 Y-29.323 E0.03838
G1 X-7.288 Y-29.923 E0.03837
G1 X-6.747 Y-30.47 E0.03838
G1 X-6.152 Y-30.958 E0.03839
G1 X-5.51 Y-31.381 E0.03836
G1 X-4.827 Y-31.736 E0.0384
G1 X-4.112 Y-32.017 E0.03833
G1 X-3.371 Y-32.223 E0.03837
G1 X-2.612 Y-32.351 E0.0384
G1 X-1.763 Y-32.4 E0.04243
G1 X1.763 Y-32.4 E0.17591
G1 X2.531 Y-32.36 E0.03837
G1 X3.291 Y-32.241 E0.03838
G1 X4.034 Y-32.043 E0.03836
G1 X4.753 Y-31.769 E0.03839
G1 X5.439 Y-31.422 E0.03835
G1 X6.086 Y-31.006 E0.03838
G1 X6.686 Y-30.525 E0.03837
G1 X7.233 Y-29.984 E0.03838
G1 X7.721 Y-29.389 E0.03839
G1 X8.144 Y-28.747 E0.03836
G1 X8.499 Y-28.064 E0.0384
G1 X8.78 Y-27.349 E0.03833
G1 X8.986 Y-26.607 E0.03842
G1 X9.114 Y-25.849 E0.03835
G1 X9.163 Y-25 E0.04243
G1 X9.162 Y-9.44 E0.77629
G0 F3600 X8.762 Y-9.44
G1 F1800 X8.763 Y25 E1.71822
G1 X8.723 Y25.747 E0.03732
G1 X8.603 Y26.486 E0.03735
G1 X8.406 Y27.207 E0.03729
G1 X8.132 Y27.904 E0.03736
G1 X7.786 Y28.567 E0.03731
G1 X7.371 Y29.189 E0.0373
G1 X6.892 Y29.764 E0.03734
G1 X6.354 Y30.284 E0.03733
G1 X5.764 Y30.744 E0.03732
G1 X5.129 Y31.138 E0.03728
G1 X4.454 Y31.462 E0.03735
G1 X3.749 Y31.712 E0.03732
G1 X3.022 Y31.886 E0.03729
G1 X2.28 Y31.981 E0.03732
G1 X1.763 Y32 E0.02581
G1 X-1.762 Y32 E0.17586
G1 X-2.509 Y31.96 E0.03732
G1 X-3.247 Y31.841 E0.03729
G1 X-3.969 Y31.643 E0.03735
G1 X-4.665 Y31.37 E0.0373
G1 X-5.328 Y31.023 E0.03733
G1 X-5.951 Y30.608 E0.03735
G1 X-6.525 Y30.129 E0.0373
G1 X-7.046 Y29.592 E0.03733
G1 X-7.505 Y29.002 E0.03729
G1 X-7.9 Y28.366 E0.03735
G1 X-8.224 Y27.692 E0.03731
G1 X-8.474 Y26.987 E0.03732
G1 X-8.648 Y26.259 E0.03734
G1 X-8.743 Y25.517 E0.03732
G1 X-8.762 Y25 E0.02581
G1 X-8.763 Y-25 E2.49451
G1 X-8.723 Y-25.747 E0.03732
G1 X-8.604 Y-26.485 E0.03729
G1 X-8.406 Y-27.207 E0.03735
G1 X-8.133 Y-27.903 E0.0373
G1 X-7.786 Y-28.566 E0.03733
G1 X-7.371 Y-29.189 E0.03735
G1 X-6.892 Y-29.763 E0.0373
G1 X-6.355 Y-30.283 E0.03729
G1 X-5.765 Y-30.743 E0.03732
G1 X-5.129 Y-31.138 E0.03735
G1 X-4.455 Y-31.462 E0.03731
G1 X-3.75 Y-31.712 E0.03732
G1 X-3.022 Y-31.886 E0.03734
G1 X-2.28 Y-31.981 E0.03732
G1 X-1.763 Y-32 E0.02581
G1 X1.763 Y-32 E0.17591
G1 X2.51 Y-31.96 E0.03732
G1 X3.248 Y-31.841 E0.03729
G1 X3.97 Y-31.643 E0.03735
G1 X4.666 Y-31.37 E0.0373
G1 X5.329 Y-31.023 E0.03733
G1 X5.952 Y-30.608 E0.03735
G1 X6.526 Y-30.129 E0.0373
G1 X7.047 Y-29.592 E0.03733
G1 X7.506 Y-29.002 E0.03729
G1 X7.901 Y-28.366 E0.03735
G1 X8.225 Y-27.692 E0.03731
G1 X8.475 Y-26.987 E0.03732
G1 X8.649 Y-26.259 E0.03734
G1 X8.744 Y-25.517 E0.03732
G1 X8.763 Y-25 E0.02581
G1 X8.762 Y-9.44 E0.77629
G0 F3600 X8.362 Y-9.44
G1 F1800 X8.363 Y25 E1.71822
G1 X8.323 Y25.726 E0.03628
G1 X8.204 Y26.442 E0.03621
G1 X8.006 Y27.141 E0.03625
G1 X7.733 Y27.814 E0.03623
G1 X7.388 Y28.453 E0.03623
G1 X6.974 Y29.05 E0.03625
G1 X6.497 Y29.598 E0.03625
G1 X5.963 Y30.091 E0.03626
G1 X5.379 Y30.522 E0.03621
G1 X4.75 Y30.885 E0.03623
G1 X4.085 Y31.178 E0.03625
G1 X3.392 Y31.396 E0.03624
G1 X2.679 Y31.536 E0.03625
G1 X1.763 Y31.6 E0.04581
G1 X-1.762 Y31.6 E0.17586
G1 X-2.487 Y31.56 E0.03623
G1 X-3.204 Y31.441 E0.03626
G1 X-3.903 Y31.243 E0.03625
G1 X-4.576 Y30.97 E0.03623
G1 X-5.215 Y30.625 E0.03623
G1 X-5.812 Y30.211 E0.03625
G1 X-6.36 Y29.735 E0.03621
G1 X-6.853 Y29.201 E0.03626
G1 X-7.283 Y28.616 E0.03622
G1 X-7.647 Y27.987 E0.03626
G1 X-7.94 Y27.322 E0.03625
G1 X-8.158 Y26.629 E0.03624
G1 X-8.298 Y25.917 E0.0362
G1 X-8.362 Y25 E0.04586
G1 X-8.363 Y-25 E2.49451
G1 X-8.323 Y-25.725 E0.03623
G1 X-8.204 Y-26.442 E0.03626
G1 X-8.006 Y-27.141 E0.03625
G1 X-7.733 Y-27.814 E0.03623
G1 X-7.388 Y-28.453 E0.03623
G1 X-6.974 Y-29.05 E0.03625
G1 X-6.498 Y-29.598 E0.03621
G1 X-5.964 Y-30.091 E0.03626
G1 X-5.379 Y-30.521 E0.03622
G1 X-4.75 Y-30.885 E0.03626
G1 X-4.086 Y-31.178 E0.03621
G1 X-3.393 Y-31.396 E0.03624
G1 X-2.68 Y-31.536 E0.03625
G1 X-1.763 Y-31.6 E0.04586
G1 X1.763 Y-31.6 E0.17591
G1 X2.488 Y-31.56 E0.03623
G1 X3.205 Y-31.441 E0.03626
G1 X3.904 Y-31.243 E0.03625
G1 X4.577 Y-30.97 E0.03623
G1 X5.216 Y-30.625 E0.03623
G1 X5.813 Y-30.211 E0.03625
G1 X6.361 Y-29.735 E0.03621
G1 X6.854 Y-29.201 E0.03626
G1 X7.284 Y-28.616 E0.03622
G1 X7.648 Y-27.987 E0.03626
G1 X7.941 Y-27.322 E0.03625
G1 X8.159 Y-26.629 E0.03624
G1 X8.299 Y-25.917 E0.0362
G1 X8.363 Y-25 E0.04586
G1 X8.362 Y-9.44 E0.77629
G0 F3600 X7.962 Y-9.44
G1 F1800 X7.963 Y25 E1.71822
G1 X7.923 Y25.703 E0.03513
G1 X7.804 Y26.397 E0.03513
G1 X7.606 Y27.073 E0.03514
G1 X7.334 Y27.722 E0.03511
G1 X6.989 Y28.336 E0.03514
G1 X6.577 Y28.907 E0.03513
G1 X6.103 Y29.427 E0.0351
G1 X5.573 Y29.891 E0.03514
G1 X4.994 Y30.291 E0.03511
G1 X4.374 Y30.623 E0.03509
G1 X3.719 Y30.883 E0.03516
G1 X3.04 Y31.067 E0.0351
G1 X2.344 Y31.173 E0.03512
G1 X1.763 Y31.2 E0.02902
G1 X-1.762 Y31.2 E0.17586
G1 X-2.465 Y31.16 E0.03513
G1 X-3.159 Y31.041 E0.03513
G1 X-3.834 Y30.843 E0.03509
G1 X-4.483 Y30.571 E0.03511
G1 X-5.097 Y30.226 E0.03514
G1 X-5.668 Y29.815 E0.0351
G1 X-6.189 Y29.341 E0.03514
G1 X-6.653 Y28.811 E0.03514
G1 X-7.053 Y28.232 E0.03511
G1 X-7.385 Y27.611 E0.03513
G1 X-7.645 Y26.957 E0.03511
G1 X-7.829 Y26.277 E0.03515
G1 X-7.935 Y25.581 E0.03512
G1 X-7.962 Y25 E0.02902
G1 X-7.963 Y-25 E2.49451
G1 X-7.923 Y-25.703 E0.03513
G1 X-7.804 Y-26.397 E0.03513
G1 X-7.606 Y-27.072 E0.03509
G1 X-7.334 Y-27.721 E0.03511
G1 X-6.989 Y-28.335 E0.03514
G1 X-6.578 Y-28.906 E0.0351
G1 X-6.104 Y-29.427 E0.03514
G1 X-5.574 Y-29.891 E0.03514
G1 X-4.995 Y-30.291 E0.03511
G1 X-4.374 Y-30.623 E0.03513
G1 X-3.72 Y-30.883 E0.03511
G1 X-3.04 Y-31.067 E0.03515
G1 X-2.344 Y-31.173 E0.03512
G1 X-1.763 Y-31.2 E0.02902
G1 X1.763 Y-31.2 E0.17591
G1 X2.466 Y-31.16 E0.03513
G1 X3.16 Y-31.041 E0.03513
G1 X3.835 Y-30.843 E0.03509
G1 X4.484 Y-30.571 E0.03511
G1 X5.098 Y-30.226 E0.03514
G1 X5.669 Y-29.815 E0.0351
G1 X6.19 Y-29.341 E0.03514
G1 X6.654 Y-28.811 E0.03514
G1 X7.054 Y-28.232 E0.03511
G1 X7.386 Y-27.611 E0.03513
G1 X7.646 Y-26.957 E0.03511
G1 X7.83 Y-26.277 E0.03515
G1 X7.936 Y-25.581 E0.03512
G1 X7.963 Y-25 E0.02902
G1 X7.962 Y-9.44 E0.77629
G0 F3600 X7.562 Y-9.44
G1 F1800 X7.563 Y25 E1.71822
G1 X7.523 Y25.68 E0.03398
G1 X7.404 Y26.35 E0.03395
G1 X7.206 Y27.002 E0.034
G1 X6.934 Y27.626 E0.03396
G1 X6.591 Y28.214 E0.03396
G1 X6.181 Y28.758 E0.03399
G1 X5.71 Y29.25 E0.03398
G1 X5.185 Y29.683 E0.03395
G1 X4.613 Y30.052 E0.03396
G1 X4.001 Y30.351 E0.03398
G1 X3.358 Y30.576 E0.03399
G1 X2.694 Y30.725 E0.03395
G1 X1.763 Y30.8 E0.0466
G1 X-1.762 Y30.8 E0.17586
G1 X-2.442 Y30.76 E0.03398
G1 X-3.112 Y30.641 E0.03395
G1 X-3.764 Y30.444 E0.03398
G1 X-4.388 Y30.172 E0.03396
G1 X-4.976 Y29.828 E0.03399
G1 X-5.52 Y29.418 E0.03399
G1 X-6.011 Y28.947 E0.03394
G1 X-6.445 Y28.422 E0.03398
G1 X-6.814 Y27.85 E0.03396
G1 X-7.113 Y27.238 E0.03398
G1 X-7.338 Y26.596 E0.03394
G1 X-7.487 Y25.931 E0.034
G1 X-7.562 Y25 E0.0466
G1 X-7.563 Y-25 E2.49451
G1 X-7.523 Y-25.68 E0.03398
G1 X-7.404 Y-26.35 E0.03395
G1 X-7.207 Y-27.002 E0.03398
G1 X-6.935 Y-27.626 E0.03396
G1 X-6.591 Y-28.214 E0.03399
G1 X-6.181 Y-28.757 E0.03395
G1 X-5.711 Y-29.249 E0.03395
G1 X-5.185 Y-29.683 E0.03402
G1 X-4.613 Y-30.051 E0.03393
G1 X-4.001 Y-30.351 E0.034
G1 X-3.359 Y-30.576 E0.03394
G1 X-2.694 Y-30.725 E0.034
G1 X-1.763 Y-30.8 E0.0466
G1 X1.763 Y-30.8 E0.17591
G1 X2.443 Y-30.76 E0.03398
G1 X3.113 Y-30.641 E0.03395
G1 X3.765 Y-30.444 E0.03398
G1 X4.389 Y-30.172 E0.03396
G1 X4.977 Y-29.828 E0.03399
G1 X5.521 Y-29.418 E0.03399
G1 X6.012 Y-28.947 E0.03394
G1 X6.446 Y-28.422 E0.03398
G1 X6.815 Y-27.85 E0.03396
G1 X7.114 Y-27.238 E0.03398
G1 X7.339 Y-26.596 E0.03394
G1 X7.488 Y-25.931 E0.034
G1 X7.563 Y-25 E0.0466
G1 X7.562 Y-9.44 E0.77629
G0 F3600 X7.162 Y-9.44
G1 F1800 X7.163 Y25 E1.71822
G1 X7.123 Y25.656 E0.03279
G1 X7.004 Y26.302 E0.03277
G1 X6.807 Y26.929 E0.03279
G1 X6.535 Y27.527 E0.03278
G1 X6.193 Y28.088 E0.03278
G1 X5.785 Y28.603 E0.03278
G1 X5.318 Y29.065 E0.03277
G1 X4.798 Y29.466 E0.03276
G1 X4.233 Y29.802 E0.0328
G1 X3.632 Y30.066 E0.03275
G1 X3.003 Y30.256 E0.03278
G1 X2.355 Y30.367 E0.0328
G1 X1.763 Y30.4 E0.02958
G1 X-1.762 Y30.4 E0.17586
G1 X-2.418 Y30.36 E0.03279
G1 X-3.064 Y30.241 E0.03277
G1 X-3.691 Y30.044 E0.03279
G1 X-4.289 Y29.772 E0.03278
G1 X-4.85 Y29.43 E0.03278
G1 X-5.365 Y29.022 E0.03278
G1 X-5.827 Y28.555 E0.03277
G1 X-6.228 Y28.035 E0.03276
G1 X-6.564 Y27.471 E0.03275
G1 X-6.828 Y26.869 E0.03279
G1 X-7.018 Y26.24 E0.03278
G1 X-7.129 Y25.593 E0.03275
G1 X-7.162 Y25 E0.02963
G1 X-7.163 Y-25 E2.49451
G1 X-7.123 Y-25.656 E0.03279
G1 X-7.004 Y-26.302 E0.03277
G1 X-6.807 Y-26.928 E0.03274
G1 X-6.535 Y-27.527 E0.03282
G1 X-6.193 Y-28.088 E0.03278
G1 X-5.786 Y-28.603 E0.03275
G1 X-5.318 Y-29.064 E0.03277
G1 X-4.798 Y-29.466 E0.03279
G1 X-4.234 Y-29.802 E0.03275
G1 X-3.632 Y-30.066 E0.03279
G1 X-3.003 Y-30.256 E0.03278
G1 X-2.356 Y-30.367 E0.03275
G1 X-1.763 Y-30.4 E0.02963
G1 X1.763 Y-30.4 E0.17591
G1 X2.419 Y-30.36 E0.03279
G1 X3.065 Y-30.241 E0.03277
G1 X3.692 Y-30.044 E0.03279
G1 X4.29 Y-29.772 E0.03278
G1 X4.851 Y-29.43 E0.03278
G1 X5.366 Y-29.022 E0.03278
G1 X5.828 Y-28.555 E0.03277
G1 X6.229 Y-28.035 E0.03276
G1 X6.565 Y-27.471 E0.03275
G1 X6.829 Y-26.869 E0.03279
G1 X7.019 Y-26.24 E0.03278
G1 X7.13 Y-25.593 E0.03275
G1 X7.163 Y-25 E0.02963
G1 X7.162 Y-9.44 E0.77629
G0 F3600 X6.762 Y-9.44
G1 F1800 X6.763 Y25 E1.71822
G1 X6.723 Y25.631 E0.03154
G1 X6.604 Y26.252 E0.03155
G1 X6.407 Y26.853 E0.03155
G1 X6.136 Y27.424 E0.03153
G1 X5.795 Y27.956 E0.03153
G1 X5.39 Y28.441 E0.03152
G1 X4.927 Y28.872 E0.03156
G1 X4.413 Y29.24 E0.03154
G1 X3.857 Y29.54 E0.03152
G1 X3.267 Y29.768 E0.03156
G1 X2.654 Y29.92 E0.03151
G1 X1.763 Y30 E0.04463
G1 X-1.762 Y30 E0.17586
G1 X-2.393 Y29.96 E0.03154
G1 X-3.014 Y29.841 E0.03155
G1 X-3.614 Y29.644 E0.03151
G1 X-4.186 Y29.373 E0.03158
G1 X-4.718 Y29.033 E0.0315
G1 X-5.203 Y28.627 E0.03156
G1 X-5.633 Y28.164 E0.03152
G1 X-6.002 Y27.65 E0.03157
G1 X-6.302 Y27.094 E0.03152
G1 X-6.53 Y26.505 E0.03151
G1 X-6.682 Y25.891 E0.03156
G1 X-6.762 Y25 E0.04463
G1 X-6.763 Y-25 E2.49451
G1 X-6.723 Y-25.631 E0.03154
G1 X-6.604 Y-26.252 E0.03155
G1 X-6.407 Y-26.852 E0.03151
G1 X-6.136 Y-27.424 E0.03158
G1 X-5.796 Y-27.956 E0.0315
G1 X-5.39 Y-28.441 E0.03156
G1 X-4.927 Y-28.871 E0.03152
G1 X-4.414 Y-29.24 E0.03153
G1 X-3.857 Y-29.54 E0.03156
G1 X-3.268 Y-29.768 E0.03151
G1 X-2.654 Y-29.92 E0.03156
G1 X-1.763 Y-30 E0.04463
G1 X1.763 Y-30 E0.17591
G1 X2.394 Y-29.96 E0.03154
G1 X3.015 Y-29.841 E0.03155
G1 X3.615 Y-29.644 E0.03151
G1 X4.187 Y-29.373 E0.03158
G1 X4.719 Y-29.033 E0.0315
G1 X5.204 Y-28.627 E0.03156
G1 X5.634 Y-28.164 E0.03152
G1 X6.003 Y-27.65 E0.03157
G1 X6.303 Y-27.094 E0.03152
G1 X6.531 Y-26.505 E0.03151
G1 X6.683 Y-25.891 E0.03156
G1 X6.763 Y-25 E0.04463
G1 X6.762 Y-9.44 E0.77629
G0 F3600 X6.362 Y-9.44
G1 F1800 X6.363 Y25 E1.71822
G1 X6.323 Y25.605 E0.03025
G1 X6.204 Y26.2 E0.03027
G1 X6.007 Y26.773 E0.03023
G1 X5.737 Y27.316 E0.03025
G1 X5.398 Y27.819 E0.03026
G1 X4.996 Y28.272 E0.03022
G1 X4.537 Y28.669 E0.03028
G1 X4.031 Y29.002 E0.03022
G1 X3.485 Y29.266 E0.03026
G1 X2.909 Y29.455 E0.03024
G1 X2.313 Y29.567 E0.03026
G1 X1.763 Y29.6 E0.02749
G1 X-1.762 Y29.6 E0.17586
G1 X-2.367 Y29.56 E0.03025
G1 X-2.961 Y29.441 E0.03022
G1 X-3.535 Y29.245 E0.03026
G1 X-4.078 Y28.974 E0.03028
G1 X-4.581 Y28.635 E0.03026
G1 X-5.034 Y28.233 E0.03022
G1 X-5.431 Y27.775 E0.03024
G1 X-5.764 Y27.268 E0.03026
G1 X-6.028 Y26.722 E0.03026
G1 X-6.217 Y26.146 E0.03024
G1 X-6.329 Y25.55 E0.03026
G1 X-6.362 Y25 E0.02749
G1 X-6.363 Y-25 E2.49451
G1 X-6.323 Y-25.605 E0.03025
G1 X-6.204 Y-26.199 E0.03022
G1 X-6.008 Y-26.773 E0.03026
G1 X-5.738 Y-27.316 E0.03025
G1 X-5.398 Y-27.818 E0.03025
G1 X-4.996 Y-28.272 E0.03025
G1 X-4.538 Y-28.669 E0.03024
G1 X-4.031 Y-29.002 E0.03026
G1 X-3.485 Y-29.265 E0.03024
G1 X-2.909 Y-29.455 E0.03026
G1 X-2.313 Y-29.567 E0.03026
G1 X-1.763 Y-29.6 E0.02749
G1 X1.763 Y-29.6 E0.17591
G1 X2.368 Y-29.56 E0.03025
G1 X2.962 Y-29.441 E0.03022
G1 X3.536 Y-29.245 E0.03026
G1 X4.079 Y-28.974 E0.03028
G1 X4.582 Y-28.635 E0.03026
G1 X5.035 Y-28.233 E0.03022
G1 X5.432 Y-27.775 E0.03024
G1 X5.765 Y-27.268 E0.03026
G1 X6.029 Y-26.722 E0.03026
G1 X6.218 Y-26.146 E0.03024
G1 X6.33 Y-25.55 E0.03026
G1 X6.363 Y-25 E0.02749
G1 X6.362 Y-9.44 E0.77629
G0 F3600 X5.962 Y-9.44
G1 F1800 X5.963 Y25 E1.71822
G1 X5.923 Y25.578 E0.02891
G1 X5.804 Y26.145 E0.0289
G1 X5.608 Y26.69 E0.0289
G1 X5.339 Y27.203 E0.0289
G1 X5.002 Y27.674 E0.02889
G1 X4.603 Y28.095 E0.02894
G1 X4.15 Y28.456 E0.0289
G1 X3.652 Y28.751 E0.02888
G1 X3.117 Y28.976 E0.02896
G1 X2.558 Y29.124 E0.02885
G1 X1.763 Y29.2 E0.03984
G1 X-1.762 Y29.2 E0.17586
G1 X-2.34 Y29.16 E0.02891
G1 X-2.907 Y29.041 E0.0289
G1 X-3.452 Y28.845 E0.0289
G1 X-3.965 Y28.576 E0.0289
G1 X-4.436 Y28.239 E0.02889
G1 X-4.856 Y27.84 E0.0289
