;FLAVOR:RepRap
;TIME:1820
;Filament used: 2.04636m
;Layer height: 0.15
;MINX:-17.78
;MINY:-17.78
;MINZ:0.3
;MAXX:17.78
;MAXY:17.78
;MAXZ:39.9
;Generated with Cura_SteamEngine 4.4.1
T0
M190 S60
M104 S200
M109 S200
M82 ;absolute extrusion mode
G28 ;Home
G1 Z15.0 F6000 ;Move the platform down 15mm
;Prime the extruder
G92 E0
G1 F200 E3
G92 E0
M83 ;relative extrusion mode
G1 F1500 E-6.5
;LAYER_COUNT:265
;LAYER:0
M107
G0 F3600 X6.893 Y16.396 Z0.3
;TYPE:SKIRT
G1 F1500 E6.5
G1 F1800 X5.561 Y16.895 E0.07096
G1 X4.489 Y17.211 E0.05576
G1 X3.092 Y17.516 E0.07134
G1 X1.992 Y17.676 E0.05546
G1 X0.57 Y17.779 E0.07113
G1 X-.541 Y17.78 E0.05543
G1 X-1.963 Y17.68 E0.07112
G1 X-3.069 Y17.522 E0.05574
G1 X-4.466 Y17.219 E0.07132
G1 X-5.54 Y16.904 E0.05584
G1 X-6.872 Y16.407 E0.07093
G1 X-7.871 Y15.951 E0.05479
G1 X-9.127 Y15.268 E0.07133
G1 X-10.074 Y14.661 E0.05612
G1 X-11.218 Y13.805 E0.07128
G1 X-12.058 Y13.078 E0.05542
G1 X-13.066 Y12.071 E0.07108
G1 X-13.794 Y11.231 E0.05546
G1 X-14.65 Y10.089 E0.0712
G1 X-15.258 Y9.144 E0.05606
G1 X-15.941 Y7.891 E0.0712
G1 X-16.397 Y6.892 E0.05479
G1 X-16.897 Y5.556 E0.07117
G1 X-17.212 Y4.488 E0.05555
G1 X-17.518 Y3.088 E0.0715
G1 X-17.678 Y1.977 E0.056
G1 X-17.779 Y0.562 E0.07077
G1 X-17.78 Y-.54 E0.05498
G1 X-17.68 Y-1.963 E0.07117
G1 X-17.521 Y-3.071 E0.05584
G1 X-17.217 Y-4.471 E0.07147
G1 X-16.903 Y-5.542 E0.05568
G1 X-16.407 Y-6.872 E0.07082
G1 X-15.95 Y-7.875 E0.05499
G1 X-15.267 Y-9.13 E0.07128
G1 X-14.661 Y-10.075 E0.05601
G1 X-13.801 Y-11.224 E0.0716
G1 X-13.071 Y-12.065 E0.05556
G1 X-12.07 Y-13.066 E0.07063
G1 X-11.234 Y-13.792 E0.05524
G1 X-10.091 Y-14.649 E0.07127
G1 X-9.147 Y-15.256 E0.05599
G1 X-7.893 Y-15.94 E0.07126
G1 X-6.896 Y-16.396 E0.0547
G1 X-5.557 Y-16.898 E0.07134
G1 X-4.474 Y-17.216 E0.05631
G1 X-3.083 Y-17.518 E0.07101
G1 X-1.992 Y-17.676 E0.055
G1 X-.57 Y-17.779 E0.07113
G1 X0.544 Y-17.78 E0.05558
G1 X1.972 Y-17.679 E0.07142
G1 X3.077 Y-17.52 E0.0557
G1 X4.468 Y-17.218 E0.07101
G1 X5.538 Y-16.905 E0.05562
G1 X6.871 Y-16.408 E0.07098
G1 X7.878 Y-15.948 E0.05523
G1 X9.139 Y-15.261 E0.07164
G1 X10.082 Y-14.656 E0.0559
G1 X11.22 Y-13.804 E0.07092
G1 X12.058 Y-13.078 E0.05532
G1 X13.064 Y-12.073 E0.07094
G1 X13.792 Y-11.234 E0.05542
G1 X14.649 Y-10.091 E0.07127
G1 X15.256 Y-9.147 E0.05599
G1 X15.94 Y-7.893 E0.07126
G1 X16.397 Y-6.893 E0.05485
G1 X16.896 Y-5.56 E0.07101
G1 X17.211 Y-4.489 E0.0557
G1 X17.516 Y-3.092 E0.07134
G1 X17.676 Y-1.992 E0.05546
G1 X17.779 Y-.571 E0.07108
G1 X17.78 Y0.54 E0.05543
G1 X17.68 Y1.963 E0.07117
G1 X17.522 Y3.068 E0.05569
G1 X17.22 Y4.462 E0.07116
G1 X16.906 Y5.534 E0.05573
G1 X16.408 Y6.87 E0.07113
G1 X15.95 Y7.875 E0.0551
G1 X15.267 Y9.13 E0.07128
G1 X14.661 Y10.074 E0.05597
G1 X13.805 Y11.218 E0.07128
G1 X13.078 Y12.058 E0.05542
G1 X12.073 Y13.064 E0.07094
G1 X11.234 Y13.792 E0.05542
G1 X10.091 Y14.649 E0.07127
G1 X9.145 Y15.257 E0.0561
G1 X7.89 Y15.941 E0.07131
G1 X6.893 Y16.396 E0.05468
G0 F3600 X6.753 Y16.022
G1 F1800 X5.421 Y16.521 E0.07096
G1 X4.403 Y16.821 E0.05295
G1 X3.006 Y17.126 E0.07134
G1 X1.963 Y17.277 E0.05258
G1 X0.541 Y17.38 E0.07113
G1 X-.513 Y17.381 E0.05258
G1 X-1.935 Y17.281 E0.07112
G1 X-2.985 Y17.131 E0.05292
G1 X-4.382 Y16.828 E0.07132
G1 X-5.4 Y16.529 E0.05293
G1 X-6.732 Y16.032 E0.07093
G1 X-7.68 Y15.6 E0.05198
G1 X-8.936 Y14.917 E0.07133
G1 X-9.834 Y14.341 E0.05323
G1 X-10.978 Y13.485 E0.07128
G1 X-11.775 Y12.795 E0.05259
G1 X-12.783 Y11.788 E0.07108
G1 X-13.474 Y10.991 E0.05263
G1 X-14.33 Y9.849 E0.0712
G1 X-14.906 Y8.953 E0.05314
G1 X-15.589 Y7.7 E0.0712
G1 X-16.023 Y6.752 E0.05202
G1 X-16.523 Y5.416 E0.07117
G1 X-16.821 Y4.402 E0.05273
G1 X-17.127 Y3.002 E0.0715
G1 X-17.279 Y1.949 E0.05308
G1 X-17.38 Y0.534 E0.07077
G1 X-17.381 Y-.512 E0.05219
G1 X-17.281 Y-1.935 E0.07117
G1 X-17.13 Y-2.986 E0.05297
G1 X-16.826 Y-4.386 E0.07147
G1 X-16.529 Y-5.402 E0.05281
G1 X-16.033 Y-6.732 E0.07082
G1 X-15.599 Y-7.683 E0.05215
G1 X-14.916 Y-8.938 E0.07128
G1 X-14.34 Y-9.835 E0.05318
G1 X-13.48 Y-10.984 E0.0716
G1 X-12.789 Y-11.783 E0.0527
G1 X-11.788 Y-12.784 E0.07063
G1 X-10.994 Y-13.472 E0.05242
G1 X-9.851 Y-14.329 E0.07127
G1 X-8.956 Y-14.904 E0.05307
G1 X-7.702 Y-15.588 E0.07126
G1 X-6.756 Y-16.021 E0.05191
G1 X-5.417 Y-16.523 E0.07134
G1 X-4.389 Y-16.826 E0.05347
G1 X-2.998 Y-17.128 E0.07101
G1 X-1.963 Y-17.277 E0.05217
G1 X-.541 Y-17.38 E0.07113
G1 X0.516 Y-17.381 E0.05273
G1 X1.944 Y-17.28 E0.07142
G1 X2.992 Y-17.13 E0.05282
G1 X4.383 Y-16.828 E0.07101
G1 X5.398 Y-16.53 E0.05278
G1 X6.731 Y-16.033 E0.07098
G1 X7.686 Y-15.597 E0.05238
G1 X8.947 Y-14.91 E0.07164
G1 X9.842 Y-14.336 E0.05305
G1 X10.98 Y-13.484 E0.07092
G1 X11.775 Y-12.795 E0.05249
G1 X12.781 Y-11.79 E0.07094
G1 X13.472 Y-10.994 E0.05259
G1 X14.329 Y-9.851 E0.07127
G1 X14.904 Y-8.956 E0.05307
G1 X15.588 Y-7.702 E0.07126
G1 X16.022 Y-6.752 E0.05211
G1 X16.521 Y-5.419 E0.07101
G1 X16.821 Y-4.403 E0.05285
G1 X17.126 Y-3.006 E0.07134
G1 X17.277 Y-1.963 E0.05258
G1 X17.38 Y-.542 E0.07108
G1 X17.381 Y0.512 E0.05258
G1 X17.281 Y1.935 E0.07117
G1 X17.131 Y2.983 E0.05282
G1 X16.829 Y4.377 E0.07116
G1 X16.531 Y5.395 E0.05292
G1 X16.033 Y6.731 E0.07113
G1 X15.599 Y7.683 E0.0522
G1 X14.916 Y8.938 E0.07128
G1 X14.341 Y9.834 E0.05311
G1 X13.485 Y10.978 E0.07128
G1 X12.795 Y11.775 E0.05259
G1 X11.79 Y12.781 E0.07094
G1 X10.994 Y13.472 E0.05259
G1 X9.851 Y14.329 E0.07127
G1 X8.953 Y14.906 E0.05325
G1 X7.698 Y15.59 E0.07131
G1 X6.753 Y16.022 E0.05184
G0 F3600 X6.613 Y15.647
G1 F1800 X5.281 Y16.146 E0.07096
G1 X4.318 Y16.43 E0.05009
G1 X2.921 Y16.735 E0.07134
G1 X1.934 Y16.878 E0.04976
G1 X0.512 Y16.981 E0.07113
G1 X-.485 Y16.982 E0.04974
G1 X-1.907 Y16.882 E0.07112
G1 X-2.9 Y16.74 E0.05004
G1 X-4.297 Y16.437 E0.07132
G1 X-5.26 Y16.154 E0.05008
G1 X-6.592 Y15.657 E0.07093
G1 X-7.489 Y15.249 E0.04916
G1 X-8.745 Y14.566 E0.07133
G1 X-9.595 Y14.021 E0.05037
G1 X-10.739 Y13.165 E0.07128
G1 X-11.492 Y12.512 E0.04973
G1 X-12.5 Y11.505 E0.07108
G1 X-13.154 Y10.751 E0.0498
G1 X-14.01 Y9.609 E0.0712
G1 X-14.555 Y8.761 E0.05029
G1 X-15.238 Y7.508 E0.0712
G1 X-15.648 Y6.612 E0.04916
G1 X-16.148 Y5.276 E0.07117
G1 X-16.431 Y4.317 E0.04988
G1 X-16.737 Y2.917 E0.0715
G1 X-16.88 Y1.92 E0.05025
G1 X-16.981 Y0.505 E0.07077
G1 X-16.982 Y-.484 E0.04934
G1 X-16.882 Y-1.907 E0.07117
G1 X-16.74 Y-2.901 E0.05009
G1 X-16.436 Y-4.301 E0.07147
G1 X-16.154 Y-5.262 E0.04997
G1 X-15.658 Y-6.592 E0.07082
G1 X-15.247 Y-7.492 E0.04936
G1 X-14.564 Y-8.747 E0.07128
G1 X-14.02 Y-9.596 E0.05031
G1 X-13.16 Y-10.745 E0.0716
G1 X-12.506 Y-11.5 E0.04983
G1 X-11.505 Y-12.501 E0.07063
G1 X-10.754 Y-13.152 E0.04958
G1 X-9.611 Y-14.009 E0.07127
G1 X-8.764 Y-14.553 E0.05022
G1 X-7.51 Y-15.237 E0.07126
G1 X-6.615 Y-15.647 E0.04911
G1 X-5.276 Y-16.149 E0.07134
G1 X-4.304 Y-16.435 E0.05055
G1 X-2.913 Y-16.737 E0.07101
G1 X-1.934 Y-16.878 E0.04935
G1 X-.512 Y-16.981 E0.07113
G1 X0.488 Y-16.982 E0.04989
G1 X1.916 Y-16.881 E0.07142
G1 X2.907 Y-16.739 E0.04995
G1 X4.298 Y-16.437 E0.07101
G1 X5.258 Y-16.155 E0.04992
G1 X6.591 Y-15.658 E0.07098
G1 X7.495 Y-15.246 E0.04956
G1 X8.756 Y-14.559 E0.07164
G1 X9.602 Y-14.016 E0.05015
G1 X10.74 Y-13.164 E0.07092
G1 X11.492 Y-12.512 E0.04966
G1 X12.498 Y-11.507 E0.07094
G1 X13.152 Y-10.754 E0.04976
G1 X14.009 Y-9.611 E0.07127
G1 X14.553 Y-8.764 E0.05022
G1 X15.237 Y-7.51 E0.07126
G1 X15.648 Y-6.612 E0.04927
G1 X16.147 Y-5.279 E0.07101
G1 X16.43 Y-4.318 E0.04998
G1 X16.735 Y-2.921 E0.07134
G1 X16.878 Y-1.934 E0.04976
G1 X16.981 Y-.513 E0.07108
G1 X16.982 Y0.484 E0.04974
G1 X16.882 Y1.907 E0.07117
G1 X16.74 Y2.898 E0.04995
G1 X16.438 Y4.292 E0.07116
G1 X16.156 Y5.255 E0.05006
G1 X15.658 Y6.591 E0.07113
G1 X15.247 Y7.492 E0.04941
G1 X14.564 Y8.747 E0.07128
G1 X14.021 Y9.595 E0.05024
G1 X13.165 Y10.739 E0.07128
G1 X12.512 Y11.492 E0.04973
G1 X11.507 Y12.498 E0.07094
G1 X10.754 Y13.152 E0.04976
G1 X9.611 Y14.009 E0.07127
G1 X8.762 Y14.554 E0.05033
G1 X7.507 Y15.238 E0.07131
G1 X6.613 Y15.647 E0.04905
G0 F3600 X6.472 Y15.273
G1 F1800 X5.14 Y15.772 E0.07096
G1 X4.233 Y16.039 E0.04717
G1 X2.836 Y16.344 E0.07134
G1 X1.905 Y16.479 E0.04693
G1 X0.483 Y16.582 E0.07113
G1 X-.457 Y16.583 E0.0469
G1 X-1.879 Y16.483 E0.07112
G1 X-2.815 Y16.349 E0.04717
G1 X-4.212 Y16.046 E0.07132
G1 X-5.12 Y15.78 E0.0472
G1 X-6.452 Y15.283 E0.07093
G1 X-7.298 Y14.897 E0.04639
G1 X-8.554 Y14.214 E0.07133
G1 X-9.355 Y13.7 E0.04748
G1 X-10.499 Y12.844 E0.07128
G1 X-11.21 Y12.229 E0.0469
G1 X-12.218 Y11.222 E0.07108
G1 X-12.834 Y10.512 E0.0469
G1 X-13.69 Y9.37 E0.0712
G1 X-14.204 Y8.57 E0.04744
G1 X-14.887 Y7.317 E0.0712
G1 X-15.273 Y6.471 E0.04639
G1 X-15.773 Y5.135 E0.07117
G1 X-16.04 Y4.231 E0.04703
G1 X-16.346 Y2.831 E0.0715
G1 X-16.481 Y1.892 E0.04733
G1 X-16.582 Y0.477 E0.07077
G1 X-16.583 Y-.456 E0.04655
G1 X-16.483 Y-1.879 E0.07117
G1 X-16.349 Y-2.817 E0.04727
G1 X-16.045 Y-4.217 E0.07147
G1 X-15.779 Y-5.122 E0.04706
G1 X-15.283 Y-6.452 E0.07082
G1 X-14.896 Y-7.301 E0.04655
G1 X-14.213 Y-8.556 E0.07128
G1 X-13.7 Y-9.356 E0.04741
G1 X-12.84 Y-10.505 E0.0716
G1 X-12.223 Y-11.217 E0.047
G1 X-11.222 Y-12.218 E0.07063
G1 X-10.514 Y-12.832 E0.04675
G1 X-9.371 Y-13.689 E0.07127
G1 X-8.572 Y-14.202 E0.04737
G1 X-7.318 Y-14.886 E0.07126
G1 X-6.475 Y-15.272 E0.04626
G1 X-5.136 Y-15.774 E0.07134
G1 X-4.219 Y-16.044 E0.04769
G1 X-2.828 Y-16.346 E0.07101
G1 X-1.905 Y-16.479 E0.04652
G1 X-.483 Y-16.582 E0.07113
G1 X0.46 Y-16.583 E0.04705
G1 X1.888 Y-16.482 E0.07142
G1 X2.822 Y-16.348 E0.04707
G1 X4.213 Y-16.046 E0.07101
G1 X5.119 Y-15.78 E0.04711
G1 X6.452 Y-15.283 E0.07098
G1 X7.304 Y-14.895 E0.04671
G1 X8.565 Y-14.208 E0.07164
G1 X9.363 Y-13.695 E0.04733
G1 X10.501 Y-12.843 E0.07092
G1 X11.21 Y-12.229 E0.04679
G1 X12.216 Y-11.224 E0.07094
G1 X12.832 Y-10.514 E0.0469
G1 X13.689 Y-9.371 E0.07127
G1 X14.202 Y-8.572 E0.04737
G1 X14.886 Y-7.318 E0.07126
G1 X15.273 Y-6.472 E0.04641
G1 X15.772 Y-5.139 E0.07101
G1 X16.039 Y-4.233 E0.04712
G1 X16.344 Y-2.836 E0.07134
G1 X16.479 Y-1.905 E0.04693
G1 X16.582 Y-.484 E0.07108
G1 X16.583 Y0.456 E0.0469
G1 X16.483 Y1.879 E0.07117
G1 X16.349 Y2.813 E0.04707
G1 X16.047 Y4.207 E0.07116
G1 X15.781 Y5.115 E0.0472
G1 X15.283 Y6.451 E0.07113
G1 X14.896 Y7.301 E0.0466
G1 X14.213 Y8.556 E0.07128
G1 X13.7 Y9.355 E0.04737
G1 X12.844 Y10.499 E0.07128
G1 X12.229 Y11.21 E0.0469
G1 X11.224 Y12.216 E0.07094
G1 X10.514 Y12.832 E0.0469
G1 X9.371 Y13.689 E0.07127
G1 X8.57 Y14.203 E0.04748
G1 X7.315 Y14.887 E0.07131
G1 X6.472 Y15.273 E0.04626
G0 F3600 X6.332 Y14.898
G1 F1800 X5 Y15.397 E0.07096
G1 X4.147 Y15.648 E0.04436
G1 X2.75 Y15.953 E0.07134
G1 X1.876 Y16.08 E0.04406
G1 X0.454 Y16.183 E0.07113
G1 X-.429 Y16.184 E0.04405
G1 X-1.851 Y16.084 E0.07112
G1 X-2.73 Y15.958 E0.0443
G1 X-4.127 Y15.655 E0.07132
G1 X-4.98 Y15.405 E0.04435
G1 X-6.312 Y14.908 E0.07093
G1 X-7.107 Y14.546 E0.04358
G1 X-8.363 Y13.863 E0.07133
G1 X-9.115 Y13.38 E0.04459
G1 X-10.259 Y12.524 E0.07128
G1 X-10.927 Y11.946 E0.04407
G1 X-11.935 Y10.939 E0.07108
G1 X-12.514 Y10.272 E0.04407
G1 X-13.37 Y9.13 E0.0712
G1 X-13.853 Y8.378 E0.04459
G1 X-14.536 Y7.125 E0.0712
G1 X-14.899 Y6.331 E0.04356
G1 X-15.399 Y4.995 E0.07117
G1 X-15.649 Y4.146 E0.04415
G1 X-15.955 Y2.746 E0.0715
G1 X-16.082 Y1.863 E0.04451
G1 X-16.183 Y0.448 E0.07077
G1 X-16.184 Y-.428 E0.0437
G1 X-16.084 Y-1.851 E0.07117
G1 X-15.958 Y-2.732 E0.0444
G1 X-15.654 Y-4.132 E0.07147
G1 X-15.404 Y-4.982 E0.0442
G1 X-14.908 Y-6.312 E0.07082
G1 X-14.545 Y-7.11 E0.04374
G1 X-13.862 Y-8.365 E0.07128
G1 X-13.38 Y-9.116 E0.04452
G1 X-12.52 Y-10.265 E0.0716
G1 X-11.94 Y-10.934 E0.04417
G1 X-10.939 Y-11.935 E0.07063
G1 X-10.274 Y-12.512 E0.04392
G1 X-9.131 Y-13.369 E0.07127
G1 X-8.381 Y-13.851 E0.04448
G1 X-7.127 Y-14.535 E0.07126
G1 X-6.334 Y-14.897 E0.04349
G1 X-4.995 Y-15.399 E0.07134
G1 X-4.134 Y-15.653 E0.04479
G1 X-2.743 Y-15.955 E0.07101
G1 X-1.876 Y-16.08 E0.0437
G1 X-.454 Y-16.183 E0.07113
G1 X0.431 Y-16.184 E0.04415
G1 X1.859 Y-16.083 E0.07142
G1 X2.737 Y-15.957 E0.04425
G1 X4.128 Y-15.655 E0.07101
G1 X4.979 Y-15.405 E0.04425
G1 X6.312 Y-14.908 E0.07098
G1 X7.112 Y-14.543 E0.04387
G1 X8.373 Y-13.856 E0.07164
G1 X9.123 Y-13.375 E0.04445
G1 X10.261 Y-12.523 E0.07092
G1 X10.927 Y-11.946 E0.04396
G1 X11.933 Y-10.941 E0.07094
G1 X12.512 Y-10.274 E0.04407
G1 X13.369 Y-9.131 E0.07127
G1 X13.851 Y-8.381 E0.04448
G1 X14.535 Y-7.127 E0.07126
G1 X14.898 Y-6.332 E0.0436
G1 X15.397 Y-4.999 E0.07101
G1 X15.648 Y-4.147 E0.04431
G1 X15.953 Y-2.75 E0.07134
G1 X16.08 Y-1.876 E0.04406
G1 X16.183 Y-.455 E0.07108
G1 X16.184 Y0.428 E0.04405
G1 X16.084 Y1.851 E0.07117
G1 X15.958 Y2.729 E0.04425
G1 X15.656 Y4.123 E0.07116
G1 X15.407 Y4.976 E0.04433
G1 X14.909 Y6.312 E0.07113
G1 X14.545 Y7.11 E0.04376
G1 X13.862 Y8.365 E0.07128
G1 X13.38 Y9.115 E0.04448
G1 X12.524 Y10.259 E0.07128
G1 X11.946 Y10.927 E0.04407
G1 X10.941 Y11.933 E0.07094
G1 X10.274 Y12.512 E0.04407
G1 X9.131 Y13.369 E0.07127
G1 X8.379 Y13.852 E0.04459
G1 X7.124 Y14.536 E0.07131
G1 X6.332 Y14.898 E0.04344
G0 F3600 X6.192 Y14.523
G1 F1800 X4.86 Y15.022 E0.07096
G1 X4.062 Y15.258 E0.04152
G1 X2.665 Y15.563 E0.07134
G1 X1.847 Y15.681 E0.04123
G1 X0.425 Y15.784 E0.07113
G1 X-.401 Y15.785 E0.04121
G1 X-1.823 Y15.685 E0.07112
G1 X-2.645 Y15.567 E0.04143
G1 X-4.042 Y15.264 E0.07132
G1 X-4.841 Y15.03 E0.04154
G1 X-6.173 Y14.533 E0.07093
G1 X-6.916 Y14.194 E0.04074
G1 X-8.172 Y13.511 E0.07133
G1 X-8.876 Y13.06 E0.04171
G1 X-10.02 Y12.204 E0.07128
G1 X-10.644 Y11.663 E0.0412
G1 X-11.652 Y10.656 E0.07108
G1 X-12.194 Y10.032 E0.04124
G1 X-13.05 Y8.89 E0.0712
G1 X-13.502 Y8.187 E0.0417
G1 X-14.185 Y6.934 E0.0712
G1 X-14.524 Y6.191 E0.04074
G1 X-15.024 Y4.855 E0.07117
G1 X-15.258 Y4.06 E0.04135
G1 X-15.564 Y2.66 E0.0715
G1 X-15.683 Y1.835 E0.04159
G1 X-15.784 Y0.42 E0.07077
G1 X-15.785 Y-.4 E0.04091
G1 X-15.685 Y-1.823 E0.07117
G1 X-15.567 Y-2.647 E0.04153
G1 X-15.263 Y-4.047 E0.07147
G1 X-15.029 Y-4.843 E0.04139
G1 X-14.533 Y-6.173 E0.07082
G1 X-14.193 Y-6.919 E0.0409
G1 X-13.51 Y-8.174 E0.07128
G1 X-13.059 Y-8.876 E0.04163
G1 X-12.199 Y-10.025 E0.0716
G1 X-11.657 Y-10.651 E0.04131
G1 X-10.656 Y-11.652 E0.07063
G1 X-10.034 Y-12.191 E0.04106
G1 X-8.891 Y-13.048 E0.07127
G1 X-8.189 Y-13.5 E0.04165
G1 X-6.935 Y-14.184 E0.07126
G1 X-6.194 Y-14.523 E0.04065
G1 X-4.855 Y-15.025 E0.07134
G1 X-4.05 Y-15.262 E0.04187
G1 X-2.659 Y-15.564 E0.07101
G1 X-1.847 Y-15.681 E0.04093
G1 X-.425 Y-15.784 E0.07113
G1 X0.403 Y-15.785 E0.04131
G1 X1.831 Y-15.684 E0.07142
G1 X2.653 Y-15.566 E0.04143
G1 X4.044 Y-15.264 E0.07101
G1 X4.839 Y-15.031 E0.04133
G1 X6.172 Y-14.534 E0.07098
G1 X6.921 Y-14.192 E0.04108
G1 X8.182 Y-13.505 E0.07164
G1 X8.883 Y-13.055 E0.04156
G1 X10.021 Y-12.203 E0.07092
G1 X10.644 Y-11.663 E0.04113
G1 X11.65 Y-10.658 E0.07094
G1 X12.191 Y-10.034 E0.0412
G1 X13.048 Y-8.891 E0.07127
G1 X13.5 Y-8.189 E0.04165
G1 X14.184 Y-6.935 E0.07126
G1 X14.524 Y-6.191 E0.04081
G1 X15.023 Y-4.858 E0.07101
G1 X15.258 Y-4.062 E0.04141
G1 X15.563 Y-2.665 E0.07134
G1 X15.681 Y-1.847 E0.04123
G1 X15.784 Y-.426 E0.07108
G1 X15.785 Y0.4 E0.04121
G1 X15.685 Y1.823 E0.07117
G1 X15.568 Y2.644 E0.04137
G1 X15.266 Y4.038 E0.07116
G1 X15.032 Y4.836 E0.04149
G1 X14.534 Y6.172 E0.07113
G1 X14.193 Y6.919 E0.04097
G1 X13.51 Y8.174 E0.07128
G1 X13.06 Y8.876 E0.0416
G1 X12.204 Y10.02 E0.07128
G1 X11.663 Y10.644 E0.0412
G1 X10.658 Y11.65 E0.07094
G1 X10.034 Y12.191 E0.0412
G1 X8.891 Y13.048 E0.07127
G1 X8.188 Y13.501 E0.04172
G1 X6.933 Y14.185 E0.07131
G1 X6.192 Y14.523 E0.04063
G0 F3600 X6.051 Y14.149
G1 F1800 X4.719 Y14.648 E0.07096
G1 X3.977 Y14.867 E0.0386
G1 X2.58 Y15.172 E0.07134
G1 X1.818 Y15.282 E0.03841
G1 X0.396 Y15.385 E0.07113
G1 X-.373 Y15.386 E0.03837
G1 X-1.795 Y15.286 E0.07112
G1 X-2.561 Y15.176 E0.03861
G1 X-3.958 Y14.873 E0.07132
G1 X-4.701 Y14.655 E0.03863
G1 X-6.033 Y14.158 E0.07093
G1 X-6.725 Y13.843 E0.03793
G1 X-7.981 Y13.16 E0.07133
G1 X-8.636 Y12.74 E0.03882
G1 X-9.78 Y11.884 E0.07128
G1 X-10.361 Y11.38 E0.03837
G1 X-11.369 Y10.373 E0.07108
G1 X-11.874 Y9.792 E0.03841
G1 X-12.73 Y8.65 E0.0712
G1 X-13.15 Y7.995 E0.03882
G1 X-13.833 Y6.742 E0.0712
G1 X-14.149 Y6.051 E0.03791
G1 X-14.649 Y4.715 E0.07117
G1 X-14.867 Y3.975 E0.03849
