;FLAVOR:RepRap
;TIME:1261
;Filament used: 1.24992m
;Layer height: 0.15
;MINX:-17.784
;MINY:-17.78
;MINZ:0.3
;MAXX:17.785
;MAXY:17.78
;MAXZ:30
;Generated with Cura_SteamEngine 4.4.1
T0
M190 S60
M104 S200
M109 S200
M82 ;absolute extrusion mode
G28 ;Home
G1 Z15.0 F6000 ;Move the platform down 15mm
;Prime the extruder
G92 E0
G1 F200 E3
G92 E0
M83 ;relative extrusion mode
G1 F1500 E-6.5
;LAYER_COUNT:199
;LAYER:0
M107
G0 F3600 X-17.578 Y2.731 Z0.3
;TYPE:SKIRT
G1 F1500 E6.5
G1 F1800 X-17.702 Y1.76 E0.04884
G1 X-17.782 Y0.509 E0.06254
G1 X-17.784 Y-.464 E0.04854
G1 X-17.707 Y-1.726 E0.06308
G1 X-17.583 Y-2.713 E0.04963
G1 X-17.347 Y-3.95 E0.06283
G1 X-17.105 Y-4.893 E0.04857
G1 X-16.719 Y-6.084 E0.06246
G1 X-16.358 Y-6.998 E0.04903
G1 X-15.823 Y-8.136 E0.06274
G1 X-15.347 Y-9.001 E0.04926
G1 X-14.672 Y-10.063 E0.06278
G1 X-14.1 Y-10.85 E0.04854
G1 X-13.302 Y-11.815 E0.06247
G1 X-12.627 Y-12.533 E0.04917
G1 X-11.709 Y-13.394 E0.06279
G1 X-10.959 Y-14.014 E0.04855
G1 X-9.945 Y-14.751 E0.06254
G1 X-9.117 Y-15.277 E0.04894
G1 X-8.015 Y-15.883 E0.06274
G1 X-7.131 Y-16.299 E0.04874
G1 X-5.963 Y-16.762 E0.06268
G1 X-5.032 Y-17.065 E0.04885
G1 X-3.819 Y-17.377 E0.06249
G1 X-2.849 Y-17.562 E0.04927
G1 X-1.6 Y-17.719 E0.0628
G1 X-.627 Y-17.78 E0.04864
G1 X0.627 Y-17.78 E0.06256
G1 X1.6 Y-17.719 E0.04864
G1 X2.849 Y-17.562 E0.0628
G1 X3.819 Y-17.377 E0.04927
G1 X5.032 Y-17.065 E0.06249
G1 X5.963 Y-16.762 E0.04885
G1 X7.121 Y-16.303 E0.06215
G1 X7.998 Y-15.891 E0.04834
G1 X9.11 Y-15.281 E0.06328
G1 X9.945 Y-14.751 E0.04934
G1 X10.959 Y-14.014 E0.06254
G1 X11.709 Y-13.394 E0.04855
G1 X12.627 Y-12.533 E0.06279
G1 X13.303 Y-11.813 E0.04927
G1 X14.094 Y-10.856 E0.06194
G1 X14.659 Y-10.081 E0.04785
G1 X15.34 Y-9.013 E0.06319
G1 X15.821 Y-8.14 E0.04973
G1 X16.356 Y-7.003 E0.06269
G1 X16.718 Y-6.087 E0.04914
G1 X17.105 Y-4.893 E0.06262
G1 X17.347 Y-3.951 E0.04852
G1 X17.583 Y-2.715 E0.06278
G1 X17.705 Y-1.744 E0.04882
G1 X17.784 Y-.493 E0.06254
G1 X17.785 Y0.49 E0.04904
G1 X17.706 Y1.743 E0.06264
G1 X17.583 Y2.715 E0.04888
G1 X17.347 Y3.951 E0.06278
G1 X17.106 Y4.888 E0.04827
G1 X16.724 Y6.069 E0.06193
G1 X16.364 Y6.984 E0.04906
G1 X15.825 Y8.132 E0.06327
G1 X15.347 Y9.001 E0.04948
G1 X14.672 Y10.063 E0.06278
G1 X14.1 Y10.85 E0.04854
G1 X13.302 Y11.815 E0.06247
G1 X12.627 Y12.533 E0.04917
G1 X11.709 Y13.394 E0.06279
G1 X10.959 Y14.014 E0.04855
G1 X9.945 Y14.751 E0.06254
G1 X9.117 Y15.277 E0.04894
G1 X8.015 Y15.883 E0.06274
G1 X7.131 Y16.299 E0.04874
G1 X5.963 Y16.762 E0.06268
G1 X5.028 Y17.066 E0.04905
G1 X3.824 Y17.375 E0.06201
G1 X2.864 Y17.558 E0.04876
G1 X1.615 Y17.716 E0.06281
G1 X0.648 Y17.778 E0.04834
G1 X-.605 Y17.78 E0.06251
G1 X-1.582 Y17.72 E0.04883
G1 X-2.841 Y17.563 E0.0633
G1 X-3.817 Y17.378 E0.04956
G1 X-5.02 Y17.069 E0.06197
G1 X-5.948 Y16.767 E0.04869
G1 X-7.116 Y16.305 E0.06266
G1 X-7.993 Y15.893 E0.04834
G1 X-9.096 Y15.289 E0.06274
G1 X-9.932 Y14.76 E0.04936
G1 X-10.946 Y14.024 E0.06251
G1 X-11.697 Y13.404 E0.04859
G1 X-12.616 Y12.543 E0.06283
G1 X-13.288 Y11.828 E0.04895
G1 X-14.087 Y10.864 E0.06247
G1 X-14.66 Y10.078 E0.04853
G1 X-15.336 Y9.017 E0.06276
G1 X-15.813 Y8.152 E0.04928
G1 X-16.349 Y7.015 E0.06271
G1 X-16.712 Y6.099 E0.04916
G1 X-17.099 Y4.908 E0.06248
G1 X-17.341 Y3.967 E0.04847
G1 X-17.578 Y2.731 E0.06279
G0 F3600 X-17.186 Y2.656
G1 F1800 X-17.303 Y1.734 E0.04637
G1 X-17.383 Y0.483 E0.06254
G1 X-17.384 Y-.44 E0.04605
G1 X-17.307 Y-1.702 E0.06308
G1 X-17.19 Y-2.638 E0.04706
G1 X-16.954 Y-3.875 E0.06283
G1 X-16.725 Y-4.769 E0.04604
G1 X-16.339 Y-5.96 E0.06246
G1 X-15.996 Y-6.827 E0.04652
G1 X-15.461 Y-7.965 E0.06274
G1 X-15.009 Y-8.786 E0.04676
G1 X-14.334 Y-9.848 E0.06278
G1 X-13.792 Y-10.595 E0.04604
G1 X-12.994 Y-11.56 E0.06247
G1 X-12.353 Y-12.241 E0.04666
G1 X-11.435 Y-13.102 E0.06279
G1 X-10.724 Y-13.691 E0.04606
G1 X-9.71 Y-14.428 E0.06254
G1 X-8.925 Y-14.926 E0.04638
G1 X-7.823 Y-15.532 E0.06274
G1 X-6.984 Y-15.927 E0.04626
G1 X-5.816 Y-16.39 E0.06268
G1 X-4.932 Y-16.678 E0.04638
G1 X-3.719 Y-16.99 E0.06249
G1 X-2.799 Y-17.165 E0.04672
G1 X-1.55 Y-17.322 E0.0628
G1 X-.627 Y-17.38 E0.04614
G1 X0.627 Y-17.38 E0.06256
G1 X1.55 Y-17.322 E0.04614
G1 X2.799 Y-17.165 E0.0628
G1 X3.719 Y-16.99 E0.04672
G1 X4.932 Y-16.678 E0.06249
G1 X5.816 Y-16.39 E0.04638
G1 X6.974 Y-15.931 E0.06215
G1 X7.806 Y-15.54 E0.04586
G1 X8.918 Y-14.93 E0.06328
G1 X9.71 Y-14.428 E0.04678
G1 X10.724 Y-13.691 E0.06254
G1 X11.435 Y-13.102 E0.04606
G1 X12.353 Y-12.241 E0.06279
G1 X12.995 Y-11.558 E0.04677
G1 X13.786 Y-10.601 E0.06194
G1 X14.321 Y-9.866 E0.04535
G1 X15.002 Y-8.798 E0.06319
G1 X15.459 Y-7.97 E0.04718
G1 X15.994 Y-6.833 E0.06269
G1 X16.337 Y-5.964 E0.04661
G1 X16.724 Y-4.77 E0.06262
G1 X16.954 Y-3.876 E0.04605
G1 X17.19 Y-2.64 E0.06278
G1 X17.306 Y-1.718 E0.04636
G1 X17.385 Y-.467 E0.06254
G1 X17.385 Y0.465 E0.0465
G1 X17.306 Y1.718 E0.06264
G1 X17.19 Y2.64 E0.04636
G1 X16.954 Y3.876 E0.06278
G1 X16.726 Y4.765 E0.04579
G1 X16.344 Y5.946 E0.06193
G1 X16.001 Y6.814 E0.04656
G1 X15.462 Y7.962 E0.06327
G1 X15.009 Y8.786 E0.04691
G1 X14.334 Y9.848 E0.06278
G1 X13.792 Y10.595 E0.04604
G1 X12.994 Y11.56 E0.06247
G1 X12.353 Y12.241 E0.04666
G1 X11.435 Y13.102 E0.06279
G1 X10.724 Y13.691 E0.04606
G1 X9.71 Y14.428 E0.06254
G1 X8.925 Y14.926 E0.04638
G1 X7.823 Y15.532 E0.06274
G1 X6.984 Y15.927 E0.04626
G1 X5.816 Y16.39 E0.06268
G1 X4.929 Y16.679 E0.04654
G1 X3.725 Y16.988 E0.06201
G1 X2.814 Y17.161 E0.04626
G1 X1.565 Y17.319 E0.06281
G1 X0.648 Y17.378 E0.04584
G1 X-.605 Y17.38 E0.06251
G1 X-1.533 Y17.323 E0.04639
G1 X-2.792 Y17.166 E0.0633
G1 X-3.717 Y16.99 E0.04698
G1 X-4.92 Y16.681 E0.06197
G1 X-5.801 Y16.395 E0.04621
G1 X-6.969 Y15.933 E0.06266
G1 X-7.801 Y15.543 E0.04584
G1 X-8.904 Y14.939 E0.06274
G1 X-9.697 Y14.437 E0.04682
G1 X-10.711 Y13.701 E0.06251
G1 X-11.423 Y13.112 E0.0461
G1 X-12.342 Y12.251 E0.06283
G1 X-12.98 Y11.573 E0.04645
G1 X-13.779 Y10.609 E0.06247
G1 X-14.323 Y9.863 E0.04606
G1 X-14.999 Y8.802 E0.06276
G1 X-15.452 Y7.981 E0.04678
G1 X-15.988 Y6.844 E0.06271
G1 X-16.332 Y5.976 E0.04658
G1 X-16.719 Y4.785 E0.06248
G1 X-16.949 Y3.892 E0.04601
G1 X-17.186 Y2.656 E0.06279
G0 F3600 X-16.793 Y2.58
G1 F1800 X-16.904 Y1.709 E0.04381
G1 X-16.984 Y0.458 E0.06254
G1 X-16.985 Y-.415 E0.04355
G1 X-16.908 Y-1.677 E0.06308
G1 X-16.797 Y-2.563 E0.04455
G1 X-16.561 Y-3.8 E0.06283
G1 X-16.344 Y-4.646 E0.04357
G1 X-15.958 Y-5.837 E0.06246
G1 X-15.634 Y-6.657 E0.04399
G1 X-15.099 Y-7.795 E0.06274
G1 X-14.672 Y-8.572 E0.04423
G1 X-13.997 Y-9.634 E0.06278
G1 X-13.483 Y-10.34 E0.04357
G1 X-12.685 Y-11.305 E0.06247
G1 X-12.08 Y-11.95 E0.04412
G1 X-11.162 Y-12.811 E0.06279
G1 X-10.489 Y-13.367 E0.04355
G1 X-9.475 Y-14.104 E0.06254
G1 X-8.732 Y-14.576 E0.04392
G1 X-7.63 Y-15.182 E0.06274
G1 X-6.837 Y-15.555 E0.04372
G1 X-5.669 Y-16.018 E0.06268
G1 X-4.833 Y-16.29 E0.04386
G1 X-3.62 Y-16.602 E0.06249
G1 X-2.749 Y-16.768 E0.04424
G1 X-1.5 Y-16.925 E0.0628
G1 X-.627 Y-16.98 E0.04364
G1 X0.627 Y-16.98 E0.06256
G1 X1.5 Y-16.925 E0.04364
G1 X2.749 Y-16.768 E0.0628
G1 X3.62 Y-16.602 E0.04424
G1 X4.833 Y-16.29 E0.06249
G1 X5.668 Y-16.018 E0.04381
G1 X6.826 Y-15.559 E0.06215
G1 X7.614 Y-15.189 E0.04343
G1 X8.726 Y-14.579 E0.06328
G1 X9.475 Y-14.104 E0.04425
G1 X10.489 Y-13.367 E0.06254
G1 X11.162 Y-12.811 E0.04355
G1 X12.08 Y-11.95 E0.06279
G1 X12.687 Y-11.304 E0.04422
G1 X13.478 Y-10.347 E0.06194
G1 X13.984 Y-9.65 E0.04297
G1 X14.665 Y-8.582 E0.06319
G1 X15.097 Y-7.799 E0.04462
G1 X15.632 Y-6.662 E0.06269
G1 X15.957 Y-5.84 E0.0441
G1 X16.344 Y-4.646 E0.06262
G1 X16.561 Y-3.801 E0.04353
G1 X16.797 Y-2.565 E0.06278
G1 X16.907 Y-1.693 E0.04385
G1 X16.986 Y-.442 E0.06254
G1 X16.986 Y0.439 E0.04395
G1 X16.907 Y1.692 E0.06264
G1 X16.797 Y2.565 E0.0439
G1 X16.561 Y3.801 E0.06278
G1 X16.345 Y4.642 E0.04332
G1 X15.963 Y5.823 E0.06193
G1 X15.639 Y6.644 E0.04403
G1 X15.1 Y7.792 E0.06327
G1 X14.672 Y8.572 E0.04439
G1 X13.997 Y9.634 E0.06278
G1 X13.483 Y10.34 E0.04357
G1 X12.685 Y11.305 E0.06247
G1 X12.08 Y11.95 E0.04412
G1 X11.162 Y12.811 E0.06279
G1 X10.489 Y13.367 E0.04355
G1 X9.475 Y14.104 E0.06254
G1 X8.732 Y14.576 E0.04392
G1 X7.63 Y15.182 E0.06274
G1 X6.837 Y15.555 E0.04372
G1 X5.669 Y16.018 E0.06268
G1 X4.829 Y16.291 E0.04407
G1 X3.625 Y16.6 E0.06201
G1 X2.764 Y16.765 E0.04374
G1 X1.515 Y16.923 E0.06281
G1 X0.647 Y16.978 E0.04339
G1 X-.606 Y16.98 E0.06251
G1 X-1.483 Y16.926 E0.04384
G1 X-2.742 Y16.769 E0.0633
G1 X-3.617 Y16.603 E0.04443
G1 X-4.82 Y16.294 E0.06197
G1 X-5.654 Y16.023 E0.04375
G1 X-6.822 Y15.561 E0.06266
G1 X-7.609 Y15.192 E0.04337
G1 X-8.712 Y14.588 E0.06274
G1 X-9.462 Y14.113 E0.04429
G1 X-10.476 Y13.377 E0.06251
G1 X-11.15 Y12.82 E0.04362
G1 X-12.069 Y11.959 E0.06283
G1 X-12.672 Y11.318 E0.04391
G1 X-13.471 Y10.354 E0.06247
G1 X-13.986 Y9.648 E0.0436
G1 X-14.662 Y8.587 E0.06276
G1 X-15.09 Y7.811 E0.04421
G1 X-15.626 Y6.674 E0.06271
G1 X-15.951 Y5.852 E0.0441
G1 X-16.338 Y4.661 E0.06248
G1 X-16.556 Y3.816 E0.04354
G1 X-16.793 Y2.58 E0.06279
G0 F3600 X-16.4 Y2.505
G1 F1800 X-16.505 Y1.683 E0.04134
G1 X-16.585 Y0.432 E0.06254
G1 X-16.586 Y-.391 E0.04106
G1 X-16.509 Y-1.653 E0.06308
G1 X-16.404 Y-2.488 E0.04199
G1 X-16.168 Y-3.725 E0.06283
G1 X-15.963 Y-4.523 E0.04111
G1 X-15.577 Y-5.714 E0.06246
G1 X-15.272 Y-6.487 E0.04146
G1 X-14.737 Y-7.625 E0.06274
G1 X-14.334 Y-8.357 E0.04169
G1 X-13.659 Y-9.419 E0.06278
G1 X-13.175 Y-10.085 E0.04107
G1 X-12.377 Y-11.05 E0.06247
G1 X-11.806 Y-11.658 E0.04161
G1 X-10.888 Y-12.519 E0.06279
G1 X-10.253 Y-13.044 E0.04111
G1 X-9.239 Y-13.781 E0.06254
G1 X-8.539 Y-14.225 E0.04136
G1 X-7.437 Y-14.831 E0.06274
G1 X-6.689 Y-15.184 E0.04126
G1 X-5.521 Y-15.647 E0.06268
G1 X-4.733 Y-15.903 E0.04134
G1 X-3.52 Y-16.215 E0.06249
G1 X-2.699 Y-16.371 E0.04169
G1 X-1.45 Y-16.528 E0.0628
G1 X-.627 Y-16.58 E0.04114
G1 X0.627 Y-16.58 E0.06256
G1 X1.45 Y-16.528 E0.04114
G1 X2.699 Y-16.371 E0.0628
G1 X3.52 Y-16.215 E0.04169
G1 X4.733 Y-15.903 E0.06249
G1 X5.521 Y-15.647 E0.04134
G1 X6.679 Y-15.188 E0.06215
G1 X7.421 Y-14.839 E0.04091
G1 X8.533 Y-14.229 E0.06328
G1 X9.239 Y-13.781 E0.04172
G1 X10.253 Y-13.044 E0.06254
G1 X10.888 Y-12.519 E0.04111
G1 X11.806 Y-11.658 E0.06279
G1 X12.378 Y-11.049 E0.04168
G1 X13.169 Y-10.092 E0.06194
G1 X13.647 Y-9.435 E0.04054
G1 X14.328 Y-8.367 E0.06319
G1 X14.735 Y-7.629 E0.04205
G1 X15.27 Y-6.492 E0.06269
G1 X15.576 Y-5.717 E0.04157
G1 X15.963 Y-4.523 E0.06262
G1 X16.168 Y-3.726 E0.04106
G1 X16.404 Y-2.49 E0.06278
G1 X16.508 Y-1.668 E0.04134
G1 X16.587 Y-.417 E0.06254
G1 X16.587 Y0.414 E0.04146
G1 X16.508 Y1.667 E0.06264
G1 X16.404 Y2.49 E0.04139
G1 X16.168 Y3.726 E0.06278
G1 X15.965 Y4.519 E0.04084
G1 X15.583 Y5.7 E0.06193
G1 X15.277 Y6.474 E0.04152
G1 X14.738 Y7.622 E0.06327
G1 X14.334 Y8.357 E0.04184
G1 X13.659 Y9.419 E0.06278
G1 X13.175 Y10.085 E0.04107
G1 X12.377 Y11.05 E0.06247
G1 X11.806 Y11.658 E0.04161
G1 X10.888 Y12.519 E0.06279
G1 X10.253 Y13.044 E0.04111
G1 X9.239 Y13.781 E0.06254
G1 X8.539 Y14.225 E0.04136
G1 X7.437 Y14.831 E0.06274
G1 X6.689 Y15.184 E0.04126
G1 X5.521 Y15.647 E0.06268
G1 X4.73 Y15.904 E0.04149
G1 X3.526 Y16.213 E0.06201
G1 X2.713 Y16.368 E0.04129
G1 X1.464 Y16.526 E0.06281
G1 X0.647 Y16.578 E0.04084
G1 X-.606 Y16.58 E0.06251
G1 X-1.434 Y16.529 E0.04139
G1 X-2.693 Y16.372 E0.0633
G1 X-3.518 Y16.215 E0.0419
G1 X-4.721 Y15.906 E0.06197
G1 X-5.507 Y15.651 E0.04123
G1 X-6.675 Y15.189 E0.06266
G1 X-7.417 Y14.841 E0.04089
G1 X-8.52 Y14.237 E0.06274
G1 X-9.227 Y13.789 E0.04176
G1 X-10.241 Y13.053 E0.06251
G1 X-10.876 Y12.528 E0.04111
G1 X-11.795 Y11.667 E0.06283
G1 X-12.364 Y11.063 E0.0414
G1 X-13.163 Y10.099 E0.06247
G1 X-13.648 Y9.433 E0.0411
G1 X-14.324 Y8.372 E0.06276
G1 X-14.728 Y7.64 E0.04171
G1 X-15.264 Y6.503 E0.06271
G1 X-15.571 Y5.729 E0.04154
G1 X-15.958 Y4.538 E0.06248
G1 X-16.163 Y3.741 E0.04106
G1 X-16.4 Y2.505 E0.06279
G0 F3600 X-16.007 Y2.43
G1 F1800 X-16.105 Y1.658 E0.03882
G1 X-16.185 Y0.407 E0.06254
G1 X-16.186 Y-.367 E0.03862
G1 X-16.109 Y-1.629 E0.06308
G1 X-16.011 Y-2.413 E0.03942
G1 X-15.775 Y-3.65 E0.06283
G1 X-15.583 Y-4.4 E0.03862
G1 X-15.197 Y-5.591 E0.06246
G1 X-14.91 Y-6.317 E0.03895
G1 X-14.375 Y-7.455 E0.06274
G1 X-13.997 Y-8.143 E0.03916
G1 X-13.322 Y-9.205 E0.06278
G1 X-12.867 Y-9.83 E0.03857
G1 X-12.069 Y-10.795 E0.06247
G1 X-11.532 Y-11.366 E0.03911
G1 X-10.614 Y-12.227 E0.06279
G1 X-10.018 Y-12.72 E0.03859
G1 X-9.004 Y-13.457 E0.06254
G1 X-8.347 Y-13.875 E0.03885
G1 X-7.245 Y-14.481 E0.06274
G1 X-6.542 Y-14.812 E0.03877
G1 X-5.374 Y-15.275 E0.06268
G1 X-4.633 Y-15.516 E0.03887
G1 X-3.42 Y-15.828 E0.06249
G1 X-2.649 Y-15.975 E0.03916
G1 X-1.4 Y-16.132 E0.0628
G1 X-.627 Y-16.18 E0.03864
G1 X0.627 Y-16.18 E0.06256
G1 X1.4 Y-16.132 E0.03864
G1 X2.649 Y-15.975 E0.0628
G1 X3.42 Y-15.828 E0.03916
G1 X4.633 Y-15.516 E0.06249
G1 X5.374 Y-15.275 E0.03887
G1 X6.532 Y-14.816 E0.06215
G1 X7.229 Y-14.488 E0.03843
G1 X8.341 Y-13.878 E0.06328
G1 X9.004 Y-13.457 E0.03918
G1 X10.018 Y-12.72 E0.06254
G1 X10.614 Y-12.227 E0.03859
G1 X11.532 Y-11.366 E0.06279
G1 X12.07 Y-10.794 E0.03918
G1 X12.861 Y-9.837 E0.06194
G1 X13.31 Y-9.22 E0.03807
G1 X13.991 Y-8.152 E0.06319
G1 X14.373 Y-7.459 E0.03948
G1 X14.908 Y-6.322 E0.06269
G1 X15.196 Y-5.594 E0.03906
G1 X15.583 Y-4.4 E0.06262
G1 X15.775 Y-3.651 E0.03858
G1 X16.011 Y-2.415 E0.06278
G1 X16.109 Y-1.643 E0.03882
G1 X16.188 Y-.392 E0.06254
G1 X16.188 Y0.389 E0.03896
G1 X16.109 Y1.642 E0.06264
G1 X16.011 Y2.415 E0.03887
G1 X15.775 Y3.651 E0.06278
G1 X15.584 Y4.396 E0.03837
G1 X15.202 Y5.577 E0.06193
G1 X14.915 Y6.304 E0.03899
G1 X14.376 Y7.452 E0.06327
G1 X13.997 Y8.143 E0.03932
G1 X13.322 Y9.205 E0.06278
G1 X12.867 Y9.83 E0.03857
G1 X12.069 Y10.795 E0.06247
G1 X11.532 Y11.366 E0.03911
G1 X10.614 Y12.227 E0.06279
G1 X10.018 Y12.72 E0.03859
G1 X9.004 Y13.457 E0.06254
G1 X8.347 Y13.875 E0.03885
G1 X7.245 Y14.481 E0.06274
G1 X6.542 Y14.812 E0.03877
G1 X5.374 Y15.275 E0.06268
G1 X4.63 Y15.516 E0.03902
G1 X3.426 Y15.825 E0.06201
G1 X2.663 Y15.971 E0.03876
G1 X1.414 Y16.129 E0.06281
G1 X0.646 Y16.178 E0.03839
G1 X-.607 Y16.18 E0.06251
G1 X-1.384 Y16.132 E0.03884
G1 X-2.643 Y15.975 E0.0633
G1 X-3.418 Y15.828 E0.03935
G1 X-4.621 Y15.519 E0.06197
G1 X-5.359 Y15.279 E0.03872
G1 X-6.527 Y14.817 E0.06266
G1 X-7.225 Y14.49 E0.03846
G1 X-8.328 Y13.886 E0.06274
G1 X-8.992 Y13.466 E0.0392
G1 X-10.006 Y12.73 E0.06251
G1 X-10.603 Y12.237 E0.03863
G1 X-11.522 Y11.376 E0.06283
G1 X-12.057 Y10.807 E0.03897
G1 X-12.856 Y9.843 E0.06247
G1 X-13.311 Y9.218 E0.03857
G1 X-13.987 Y8.157 E0.06276
G1 X-14.366 Y7.47 E0.03914
G1 X-14.902 Y6.333 E0.06271
G1 X-15.191 Y5.605 E0.03908
G1 X-15.578 Y4.414 E0.06248
G1 X-15.77 Y3.666 E0.03853
G1 X-16.007 Y2.43 E0.06279
G0 F3600 X-15.614 Y2.354
G1 F1800 X-15.706 Y1.632 E0.03631
G1 X-15.786 Y0.381 E0.06254
G1 X-15.787 Y-.342 E0.03607
G1 X-15.71 Y-1.604 E0.06308
G1 X-15.618 Y-2.338 E0.03691
G1 X-15.382 Y-3.575 E0.06283
G1 X-15.202 Y-4.276 E0.03611
G1 X-14.816 Y-5.467 E0.06246
G1 X-14.548 Y-6.147 E0.03647
G1 X-14.013 Y-7.285 E0.06274
G1 X-13.659 Y-7.928 E0.03662
G1 X-12.984 Y-8.99 E0.06278
G1 X-12.559 Y-9.575 E0.03607
G1 X-11.761 Y-10.54 E0.06247
G1 X-11.259 Y-11.074 E0.03657
G1 X-10.341 Y-11.935 E0.06279
G1 X-9.783 Y-12.397 E0.03614
G1 X-8.769 Y-13.134 E0.06254
G1 X-8.154 Y-13.524 E0.03633
G1 X-7.052 Y-14.13 E0.06274
G1 X-6.394 Y-14.44 E0.03629
G1 X-5.226 Y-14.903 E0.06268
G1 X-4.534 Y-15.128 E0.0363
G1 X-3.321 Y-15.44 E0.06249
G1 X-2.599 Y-15.578 E0.03667
G1 X-1.35 Y-15.735 E0.0628
G1 X-.627 Y-15.78 E0.03614
G1 X0.627 Y-15.78 E0.06256
G1 X1.35 Y-15.735 E0.03614
G1 X2.599 Y-15.578 E0.0628
G1 X3.321 Y-15.44 E0.03667
G1 X4.534 Y-15.128 E0.06249
G1 X5.226 Y-14.903 E0.0363
G1 X6.384 Y-14.444 E0.06215
G1 X7.037 Y-14.137 E0.036
G1 X8.149 Y-13.527 E0.06328
G1 X8.769 Y-13.134 E0.03662
G1 X9.783 Y-12.397 E0.06254
G1 X10.341 Y-11.935 E0.03614
G1 X11.259 Y-11.074 E0.06279
G1 X11.762 Y-10.539 E0.03664
G1 X12.553 Y-9.582 E0.06194
G1 X12.972 Y-9.005 E0.03558
G1 X13.653 Y-7.937 E0.06319
G1 X14.011 Y-7.288 E0.03698
G1 X14.546 Y-6.151 E0.06269
G1 X14.815 Y-5.47 E0.03653
G1 X15.202 Y-4.276 E0.06262
G1 X15.382 Y-3.576 E0.03606
G1 X15.618 Y-2.34 E0.06278
G1 X15.709 Y-1.618 E0.03631
